Assets/Sources/Texture/LUT/DCI-P3 Kodak 2383 D55.cube
TITLE "Generated by Resolve"
LUT_3D_SIZE 9
0.0438239 0.043595 0.0514382
0.0552224 0.0471656 0.0543984
0.0897688 0.0563973 0.0560464
0.184939 0.0753948 0.057847
0.339132 0.0886549 0.059266
0.480568 0.0796521 0.064271
0.562493 0.0488289 0.0690929
0.601694 0 0.0722972
0.620295 0 0.0747234
0.0473793 0.0543984 0.0561227
0.057023 0.0572213 0.0585794
0.0987411 0.0682231 0.060502
0.207996 0.0903334 0.0619974
0.375677 0.107424 0.0633707
0.522438 0.103487 0.0684062
0.601953 0.088365 0.0729839
0.63682 0.0852674 0.0754559
0.65333 0.0941024 0.077409
0.0402075 0.0864271 0.067628
0.0572518 0.0905623 0.0700694
0.112169 0.105501 0.0722515
0.239689 0.133654 0.0730297
0.425177 0.158724 0.0726329
0.578195 0.165698 0.0754864
0.655146 0.163241 0.0787518
0.688563 0.170779 0.0803693
0.705455 0.184298 0.0823224
0 0.164462 0.0897688
0 0.171023 0.0903487
0.126452 0.194491 0.0917067
0.285283 0.235676 0.0888838
0.493217 0.273716 0.0829938
0.655131 0.291249 0.0809186
0.732326 0.29572 0.081529
0.764279 0.306127 0.0821546
0.781933 0.325307 0.0828717
0 0.279805 0.114595
0 0.292866 0.115389
0.125231 0.328389 0.111223
0.337194 0.390341 0.101839
0.571298 0.447257 0.0797436
0.744839 0.47631 0.0580758
0.823911 0.482933 0.0463264
0.855207 0.493614 0.0399939
0.870985 0.511406 0.0239414
0 0.378882 0.132433
0 0.39939 0.132418
0.0962692 0.445701 0.121813
0.377432 0.525856 0.101061
0.633066 0.602274 0.0140993
0.821927 0.649378 0
0.906889 0.663233 0
0.93785 0.671946 0
0.949584 0.681514 0
0 0.42707 0.140536
0 0.454124 0.138781
0.102632 0.504768 0.125582
0.39968 0.592309 0.0965133
0.664515 0.68101 9.15541e-05
0.85922 0.737331 0
0.949081 0.757748 0
0.980453 0.765362 0
0.990204 0.769802 0
0 0.448646 0.147189
0 0.484535 0.143633
0.171984 0.536538 0.131014
0.424201 0.62182 0.102098
0.67982 0.709041 0
0.871641 0.76701 0
0.963485 0.790448 0
0.996094 0.798444 0
1 0.799161 0
0 0.479744 0.167239
0 0.525948 0.160281
0.262608 0.57705 0.154086
0.473548 0.651926 0.135363
0.700175 0.726223 0.0964828
0.874144 0.774899 0
0.964553 0.79855 0
0.998444 0.806775 0
1 0.805127 0
0.0435035 0.045243 0.0609598
0.0556497 0.0482032 0.0643626
0.0920424 0.0575265 0.0668498
0.192996 0.0775616 0.0697948
0.35053 0.0892042 0.0722057
0.49276 0.0779278 0.0775311
0.5738 0.0374914 0.0816663
0.613077 0 0.0853742
0.631342 0 0.088426
0.0465858 0.0562448 0.0670481
0.0585794 0.0593118 0.0695201
0.101457 0.0710307 0.0728313
0.215702 0.0934615 0.0755322
0.38761 0.109987 0.0782635
0.535256 0.104906 0.0826886
0.614145 0.088838 0.086305
0.648585 0.0868086 0.0894789
0.664881 0.0963149 0.0924697
0.0347906 0.0910811 0.0806897
0.0569314 0.0952926 0.0832227
0.115129 0.110765 0.0865644
0.248844 0.139849 0.0886091
0.438315 0.165194 0.0900893
0.592126 0.171817 0.0927138
0.668528 0.169619 0.0954452
0.701503 0.177234 0.0981155
0.718822 0.192645 0.102251
0 0.174762 0.106432
0 0.181552 0.107256
0.127459 0.205875 0.108949
0.295735 0.248814 0.108659
0.508385 0.28716 0.105486
0.671489 0.304753 0.104509
0.74818 0.308843 0.105333
0.77969 0.320058 0.107042
0.797543 0.340291 0.110628
0 0.295232 0.13431
0 0.309361 0.135836
0.118807 0.345739 0.132082
0.347707 0.410239 0.126513
0.587915 0.468513 0.112367
0.762768 0.497383 0.101961
0.84152 0.50399 0.0983444
0.872465 0.515267 0.0991073
0.888182 0.53344 0.101656
0 0.395865 0.154894
0 0.417502 0.155627
0.084535 0.464683 0.146975
0.386099 0.546914 0.133791
0.648783 0.624826 0.103334
0.835584 0.667292 0.0615854
0.919371 0.680064 0.028397
0.949142 0.68751 0.027451
0.960739 0.69749 0.0436103
0 0.442634 0.167224
0 0.470451 0.166781
0.0844587 0.521874 0.156832
0.406027 0.610681 0.140505
0.675471 0.697551 0.10193
0.868009 0.74847 0.0229801
0.957702 0.76875 0
0.988083 0.775464 0
0.996185 0.778836 0
0 0.465476 0.187152
0 0.501167 0.185824
0.12607 0.552499 0.177646
0.424689 0.638544 0.164691
0.686839 0.724163 0.137438
0.877424 0.776272 0.10277
0.968154 0.797192 0.0807355
0.999786 0.804456 0.0790417
1 0.802747 0.0745556
0 0.502815 0.245472
0 0.548959 0.246342
0.230457 0.598321 0.246372
0.466102 0.673442 0.244511
0.702266 0.747631 0.237018
0.880262 0.795529 0.228946
0.970169 0.816464 0.225162
1 0.822522 0.224903
1 0.819684 0.229633
0.0420081 0.0449226 0.0972915
0.05449 0.048661 0.100557
0.0931106 0.0577401 0.105486
0.196002 0.0776074 0.111711
0.357214 0.088838 0.116442
0.501945 0.0751202 0.120851
0.583856 0.0125734 0.124041
0.624155 0 0.129717
0.642466 0 0.135744
0.041001 0.058854 0.106294
0.0545815 0.061387 0.108934
0.101289 0.0733501 0.114748
0.218982 0.0956893 0.121416
0.394873 0.111864 0.126619
0.545312 0.105623 0.130541
0.625101 0.0880903 0.133379
0.659602 0.0865034 0.13785
0.675639 0.0976272 0.144289
0.000259403 0.0985733 0.125811
0.038468 0.102708 0.128222
0.111955 0.117769 0.134615
0.25182 0.146639 0.141665
0.445792 0.171527 0.146532
0.602289 0.1776 0.149096
0.679896 0.175448 0.151247
0.713146 0.183017 0.155322
0.730251 0.199908 0.163561
0 0.189517 0.15938
0 0.196292 0.160952
0.113725 0.219089 0.164645
0.296727 0.261769 0.170886
0.515785 0.30013 0.173617
0.682338 0.317327 0.174304
0.759884 0.320821 0.175158
0.791623 0.332357 0.179004
0.8094 0.353887 0.187472
0 0.31603 0.194415
0 0.330144 0.197177
0.0563211 0.364981 0.196597
0.344045 0.429862 0.200717
0.59379 0.488334 0.199191
0.772976 0.516793 0.195926
0.853071 0.523033 0.194903
0.884016 0.534127 0.198398
0.899306 0.552941 0.206348
0 0.41976 0.221393
0 0.441398 0.224414
0 0.487724 0.222293
0.376913 0.569207 0.222034
0.651347 0.647334 0.215381
0.843565 0.689998 0.207889
0.929168 0.702556 0.205234
0.958984 0.709606 0.207477
0.970321 0.719966 0.215991
0 0.467185 0.243275
0 0.494789 0.245991
0 0.545495 0.244221
0.391852 0.632471 0.242924
0.674556 0.719692 0.235767
0.872755 0.770626 0.226886
0.963027 0.788907 0.222889
0.993744 0.795499 0.224903
1 0.798856 0.232151
0 0.492485 0.280705
0 0.527855 0.284932
0 0.577096 0.284199
0.405341 0.661357 0.286046
0.681971 0.747112 0.284092
0.878477 0.799298 0.27834
0.97116 0.819791 0.274205
1 0.825193 0.273777
1 0.82359 0.277012
0 0.530602 0.355993
0 0.575814 0.363516
0.132769 0.621683 0.366583
0.445487 0.696574 0.37615
0.694682 0.770687 0.381109
0.877134 0.818341 0.381765
0.968612 0.838941 0.381094
1 0.845045 0.381811
1 0.842786 0.384909
0.0342412 0.0149386 0.184161
0.0505989 0.0236667 0.188861
0.0922866 0.038407 0.200549
0.200366 0.0618296 0.214878
0.365393 0.0746929 0.225498
0.511528 0.0365759 0.231891
0.596918 0 0.238148
0.636759 0 0.244892
0.654551 0 0.253117
0.00155642 0.0540475 0.199649
0.0401465 0.0561379 0.204364
0.0989548 0.0662852 0.217029
0.222843 0.0894026 0.232441
0.403464 0.105974 0.244129
0.555596 0.0966812 0.250233
0.635615 0.0754253 0.253239
0.669474 0.0719768 0.258839
0.685588 0.0869306 0.268009
0 0.106447 0.234119
0 0.110094 0.237522
0.099794 0.126589 0.248844
0.253437 0.15375 0.265782
0.453529 0.177798 0.277958
0.61239 0.182803 0.282918
0.690318 0.180453 0.285328
0.723156 0.189685 0.290532
0.739864 0.20734 0.301396
0 0.213107 0.281849
0 0.219043 0.285618
0.0257877 0.240421 0.292958
0.291356 0.281712 0.310292
0.520729 0.318776 0.322332
0.690669 0.335164 0.326711
0.768673 0.33756 0.327642
0.800366 0.349554 0.33283
0.817563 0.372137 0.343603
0 0.349248 0.328466
0 0.362783 0.334401
0.000228885 0.397986 0.342473
0.326055 0.458335 0.355627
0.593103 0.515831 0.36701
0.77731 0.543481 0.369818
0.858885 0.549111 0.369818
0.889738 0.559579 0.373983
0.904509 0.579446 0.383719
0 0.457038 0.362432
0 0.478355 0.369574
0 0.524956 0.378454
0.347311 0.601465 0.388708
0.645258 0.679454 0.399237
0.843336 0.721019 0.401297
0.930892 0.732967 0.401038
0.961212 0.739971 0.403891
0.971954 0.750301 0.412634
0 0.50454 0.389044
0 0.532815 0.398474
0 0.582956 0.40708
0.355978 0.66511 0.41651
0.664332 0.752148 0.427649
0.869047 0.80209 0.429664
0.961685 0.819867 0.429053
0.992798 0.826307 0.431693
1 0.829953 0.438254
0 0.529137 0.430488
0 0.564446 0.442374
0 0.61355 0.451423
0.366506 0.692393 0.461738
0.669139 0.777859 0.475486
0.872221 0.829435 0.479103
0.967086 0.849546 0.478447
0.999817 0.856199 0.480049
1 0.854398 0.482033
0 0.561105 0.492149
0 0.60734 0.50811
0 0.651255 0.514397
0.415671 0.722957 0.530007
0.681865 0.79646 0.544778
0.869841 0.843656 0.551873
0.96347 0.863859 0.55288
0.998444 0.871229 0.55465
1 0.86949 0.555993
0 0 0.298131
0 0 0.302617
0.090074 0 0.318669
0.211597 0 0.340475
0.379629 0 0.358419
0.529595 0 0.372107
0.614542 0 0.379736
0.653651 0 0.387076
0.670695 0 0.395148
0 0 0.318227
0 0 0.322988
0.0966659 0 0.339956
0.228763 0.0276036 0.363348
0.412833 0.062211 0.382773
0.566354 0.0159762 0.393774
0.648783 0.000259403 0.40058
0.682521 0 0.406882
0.696498 0 0.415198
0 0.0813306 0.356435
0 0.0939345 0.365011
0.0711986 0.126253 0.382193
0.255268 0.152148 0.4094
0.461097 0.175189 0.430045
0.621393 0.179141 0.439368
0.699321 0.176303 0.443
0.732082 0.186801 0.449256
0.748806 0.207721 0.460746
0 0.228733 0.424018
0 0.233555 0.430213
0.000320439 0.259892 0.445945
0.282429 0.299687 0.468727
0.523781 0.335225 0.490333
0.696544 0.350668 0.499519
0.775402 0.352682 0.501778
0.806897 0.364752 0.507088
0.823941 0.388769 0.518364
0 0.378256 0.482506
0 0.392798 0.492821
0 0.429053 0.50837
0.299947 0.485252 0.526055
0.588708 0.541741 0.54873
0.777508 0.568322 0.55761
0.860655 0.573236 0.559243
0.891737 0.583673 0.563439
0.906249 0.603433 0.572152
0 0.490974 0.522148
0 0.512581 0.533928
0 0.559731 0.550286
0.306874 0.631373 0.565469
0.633829 0.708705 0.589181
0.838071 0.749401 0.598672
0.927764 0.760861 0.600671
0.958816 0.767697 0.603281
0.969467 0.777569 0.609506
0 0.538888 0.547417
0 0.566873 0.560891
0 0.61767 0.577493
0.307393 0.694575 0.591501
0.649973 0.780957 0.615885
0.861433 0.830381 0.626169
0.956146 0.847974 0.62826
0.988128 0.854017 0.630594
0.997269 0.858183 0.635157
0 0.558923 0.57908
0 0.595193 0.595987
0 0.644678 0.611475
0.323186 0.719295 0.625681
0.654932 0.80412 0.650736
0.863905 0.854963 0.661738
0.960891 0.874998 0.664317
0.995102 0.881819 0.665995
1 0.881865 0.66775
0 0.586999 0.622827
0 0.633356 0.642176
0 0.677409 0.652598
0.384207 0.745418 0.670695
0.67013 0.818341 0.69366
0.862608 0.864912 0.70605
0.95816 0.885206 0.709682
0.994202 0.892302 0.710689
1 0.891905 0.711482
0 0 0.396994
0 0 0.403098
0.0712291 0 0.41799
0.218845 0 0.44683
0.396338 0 0.472129
0.547372 0 0.490089
0.631922 0 0.499214
0.670726 0 0.506874
0.688045 0 0.514961
0 0 0.423758
0 0 0.430304
0.0773785 0 0.446448
0.2374 0 0.477562
0.427619 0 0.503548
0.584436 0 0.520439
0.666819 0 0.528481
0.700206 0 0.534951
0.714397 0 0.543755
0 0 0.462119
0 0.00860609 0.469291
0.0346838 0.113085 0.492134
0.255528 0.138872 0.52668
0.465705 0.160906 0.55462
0.628229 0.163531 0.568597
0.707179 0.159197 0.573754
0.740353 0.173068 0.58056
0.757198 0.199161 0.591821
0 0.223377 0.537087
0 0.231952 0.547433
0 0.263615 0.567452
0.271672 0.30782 0.594781
0.523507 0.342535 0.624735
0.699489 0.357046 0.638849
0.779995 0.358801 0.64268
0.812085 0.371054 0.648127
0.829084 0.396582 0.658701
0 0.390402 0.605646
0 0.407691 0.619089
0 0.444511 0.638468
0.272877 0.500282 0.659617
0.581094 0.555886 0.691524
0.775051 0.581933 0.706004
0.860746 0.586816 0.709697
0.892515 0.596704 0.713497
0.907347 0.617136 0.721172
0 0.512322 0.651682
0 0.533989 0.664057
0 0.580926 0.685252
0.24361 0.649241 0.702373
0.620615 0.726131 0.736477
0.83154 0.766644 0.752468
0.923919 0.77792 0.756436
0.95639 0.784772 0.759152
0.967407 0.794568 0.763394
0 0.56054 0.67216
0 0.588617 0.688167
0 0.639841 0.70927
0.226581 0.713298 0.725155
0.63473 0.799466 0.759731
0.853544 0.848981 0.776944
0.951125 0.866606 0.781888
0.984741 0.872679 0.783917
0.994278 0.876707 0.786542
0 0.578698 0.692653
0 0.614527 0.712413
0 0.664134 0.730709
0.260014 0.736126 0.74728
0.640391 0.820905 0.781338
0.856321 0.872053 0.798947
0.956069 0.892531 0.804639
0.991699 0.899428 0.806516
1 0.900938 0.807691
0 0.603387 0.720165
0 0.650263 0.742977
0 0.69427 0.755444
0.35404 0.759609 0.774807
0.65861 0.832471 0.804486
0.856001 0.879088 0.821546
0.954086 0.899779 0.827848
0.991485 0.907149 0.82945
1 0.907866 0.82977
0 0 0.459403
0 0 0.465995
0.0371252 0 0.480598
0.221515 0 0.513771
0.406821 0 0.543923
0.561288 0 0.565698
0.646525 0 0.576349
0.685557 0 0.585184
0.701885 0 0.591745
0 0 0.492317
0 0 0.500038
0.0434424 0 0.515862
0.241443 0 0.551217
0.438911 0 0.58262
0.598825 0 0.602655
0.68162 0 0.611902
0.715129 0 0.618845
0.728985 0 0.626993
0 0 0.532143
0 3.0518e-05 0.540322
0.00260929 0.0960708 0.561242
0.255619 0.133059 0.599619
0.469902 0.155749 0.63267
0.634897 0.15668 0.650416
0.71519 0.149874 0.657038
0.748684 0.167117 0.664088
0.765957 0.197681 0.675258
0 0.217914 0.604181
0 0.224506 0.614069
0 0.264042 0.63856
0.263462 0.312963 0.66952
0.522484 0.34696 0.705013
0.701198 0.361257 0.723064
0.783688 0.362707 0.72871
0.816403 0.374273 0.734173
0.833661 0.401495 0.744045
0 0.396872 0.678599
0 0.411063 0.690593
0 0.450675 0.713649
0.245869 0.506035 0.735851
0.574121 0.561013 0.774075
0.772244 0.58732 0.793225
0.860059 0.591684 0.798581
0.892836 0.6009 0.802319
0.907835 0.62182 0.808988
0 0.521645 0.724956
0 0.54049 0.736934
0 0.58883 0.760372
0.159228 0.656336 0.779919
0.609873 0.732525 0.820325
0.825635 0.773205 0.841093
0.920714 0.784482 0.847257
0.954589 0.791135 0.850065
0.965728 0.800687 0.852644
0 0.570504 0.741527
0 0.599603 0.759716
0 0.648981 0.781598
0.154452 0.721767 0.800153
0.623163 0.807233 0.840162
0.846891 0.857114 0.862257
0.947387 0.875029 0.869841
0.982544 0.88127 0.87219
0.99263 0.885008 0.873457
0 0.589029 0.755718
0 0.62501 0.776074
0 0.672663 0.794003
0.173846 0.743114 0.812161
0.628473 0.827802 0.851408
0.849775 0.879667 0.873671
0.952758 0.900664 0.881956
0.989731 0.90782 0.884306
0.999741 0.909743 0.885069
0 0.611627 0.772457
0 0.657374 0.794247
0 0.701701 0.808545
0.333898 0.765042 0.82797
0.649226 0.838148 0.86183
0.850187 0.885252 0.882216
0.950866 0.906477 0.890669
0.989883 0.914168 0.893492
1 0.915587 0.893675
0 0 0.495415
0 0 0.502693
0.0217746 0 0.51754
0.229328 0 0.552712
0.422248 0 0.585336
0.57879 0 0.607858
0.663844 0 0.619394
0.700893 0 0.627253
0.716884 0 0.634714
0 0 0.532662
0 0 0.541711
0.0328832 1.5259e-05 0.557443
0.247303 3.0518e-05 0.594522
0.449805 0 0.628183
0.611933 0 0.648859
0.695201 3.0518e-05 0.658686
0.728603 1.5259e-05 0.665553
0.741772 0 0.67306
0 0 0.567452
0 0 0.576486
0 0.120943 0.601083
0.258076 0.163912 0.640131
0.479286 0.186618 0.675669
0.646891 0.190417 0.695338
0.728527 0.186618 0.702846
0.762402 0.200351 0.709819
0.779736 0.229969 0.720226
0 0.227436 0.636225
0 0.236408 0.646754
0 0.279973 0.67332
0.259968 0.330175 0.704173
0.524956 0.365072 0.742061
0.706035 0.379522 0.762081
0.790356 0.380896 0.76875
0.823896 0.392157 0.774456
0.841062 0.418555 0.783444
0 0.404471 0.707774
0 0.414816 0.717968
0 0.457313 0.742947
0.232456 0.513222 0.766018
0.571099 0.568109 0.806836
0.771115 0.594324 0.828107
0.860639 0.598535 0.834714
0.894591 0.607813 0.838956
0.909712 0.627314 0.844678
0 0.523613 0.751431
0 0.547051 0.765988
0 0.591959 0.78851
0.151217 0.659007 0.808835
0.603647 0.734264 0.851057
0.821347 0.774914 0.874266
0.918196 0.786068 0.881895
0.953536 0.792706 0.885283
0.965789 0.802945 0.887831
0 0.575891 0.771008
0 0.603296 0.786252
0 0.652354 0.807385
0.142 0.724163 0.827436
0.615991 0.808606 0.869261
0.842008 0.858717 0.893767
0.94464 0.87689 0.902846
0.981109 0.883238 0.90576
0.992065 0.887404 0.906935
0 0.592203 0.777951
0 0.627665 0.797147
0 0.676112 0.817411
0.160311 0.745342 0.83537
0.62211 0.829419 0.87631
0.845075 0.881453 0.900679
0.949981 0.902937 0.910414
0.988449 0.910201 0.913375
0.999023 0.912383 0.913939
0 0.6177 0.791989
0 0.65948 0.811353
0 0.703838 0.82681
0.323445 0.766217 0.846571
0.6421 0.838895 0.881773
0.845319 0.886671 0.903929
0.948013 0.908385 0.913725
0.988785 0.916304 0.917128
1 0.918273 0.917433
0 0 0.538155
0 0 0.547372
0.0540017 0 0.56405
0.249119 0 0.600809
0.446571 0 0.634501
0.607095 0 0.656458
0.691768 0 0.667048
0.726329 0 0.67451
0.739284 0 0.682109
0 0 0.568765
0 3.0518e-05 0.579156
0 0.12285 0.602426
0.259663 0.157565 0.641184
0.474128 0.180194 0.676905
0.639384 0.18349 0.697185
0.721935 0.177234 0.705303
0.757076 0.189929 0.71313
0.775051 0.224125 0.723751
0 0.127993 0.603326
0 0.155657 0.618601
0 0.206668 0.644495
0.264195 0.25391 0.680201
0.501228 0.282368 0.71722
0.674342 0.293004 0.737911
0.758144 0.292454 0.745663
0.792767 0.303792 0.752422
0.810758 0.332586 0.762402
0 0.280812 0.664836
0 0.298909 0.680812
0 0.333288 0.70222
0.260441 0.38265 0.730694
0.536828 0.422461 0.769574
0.721813 0.440192 0.790722
0.80856 0.442222 0.79794
0.843366 0.452873 0.803464
0.860288 0.478477 0.811521
0 0.418189 0.719631
0 0.439643 0.736187
0 0.480964 0.758968
0.23125 0.537148 0.781598
0.573617 0.593118 0.822492
0.775433 0.621256 0.8448
0.867475 0.626261 0.852216
0.902449 0.634226 0.856245
0.917388 0.652613 0.861341
0 0.530526 0.76141
0 0.555886 0.77702
0 0.601144 0.799619
0.153628 0.666148 0.818982
0.601892 0.740032 0.86099
0.818845 0.780743 0.884749
0.917601 0.792691 0.893324
0.953994 0.798535 0.896605
0.967041 0.80856 0.89929
0 0.578302 0.778531
0 0.609125 0.79678
0 0.656794 0.816052
0.145846 0.726589 0.83566
0.613489 0.809186 0.877607
0.837674 0.858717 0.902541
0.941863 0.877317 0.912276
0.979965 0.883604 0.915663
0.990951 0.887343 0.916259
0 0.595026 0.784985
0 0.632685 0.805142
0 0.680507 0.825574
0.162737 0.747173 0.842374
0.618662 0.829404 0.883253
0.840421 0.881102 0.908064
0.947173 0.903044 0.9187
0.987274 0.910674 0.922133
0.997772 0.912062 0.921813
0 0.621027 0.798077
0 0.663737 0.817945
0 0.706722 0.832792
0.324208 0.767269 0.852399
0.637415 0.838483 0.887373
0.840421 0.886198 0.910048
0.944671 0.908339 0.920333
0.986816 0.916243 0.923812
0.999985 0.918898 0.924834
