Assets/Sources/Texture/LUT/DCI-P3 Kodak 2383 D55.cube
TITLE "Generated by Resolve"
LUT_3D_SIZE 5
0.0438239 0.043595 0.0514382
0.0897688 0.0563973 0.0560464
0.339132 0.0886549 0.059266
0.562493 0.0488289 0.0690929
0.620295 0 0.0747234
0.0402075 0.0864271 0.067628
0.112169 0.105501 0.0722515
0.425177 0.158724 0.0726329
0.655146 0.163241 0.0787518
0.705455 0.184298 0.0823224
0 0.279805 0.114595
0.125231 0.328389 0.111223
0.571298 0.447257 0.0797436
0.823911 0.482933 0.0463264
0.870985 0.511406 0.0239414
0 0.42707 0.140536
0.102632 0.504768 0.125582
0.664515 0.68101 9.15541e-05
0.949081 0.757748 0
0.990204 0.769802 0
0 0.479744 0.167239
0.262608 0.57705 0.154086
0.700175 0.726223 0.0964828
0.964553 0.79855 0
1 0.805127 0
0.0420081 0.0449226 0.0972915
0.0931106 0.0577401 0.105486
0.357214 0.088838 0.116442
0.583856 0.0125734 0.124041
0.642466 0 0.135744
0.000259403 0.0985733 0.125811
0.111955 0.117769 0.134615
0.445792 0.171527 0.146532
0.679896 0.175448 0.151247
0.730251 0.199908 0.163561
0 0.31603 0.194415
0.0563211 0.364981 0.196597
0.59379 0.488334 0.199191
0.853071 0.523033 0.194903
0.899306 0.552941 0.206348
0 0.467185 0.243275
0 0.545495 0.244221
0.674556 0.719692 0.235767
0.963027 0.788907 0.222889
1 0.798856 0.232151
0 0.530602 0.355993
0.132769 0.621683 0.366583
0.694682 0.770687 0.381109
0.968612 0.838941 0.381094
1 0.842786 0.384909
0 0 0.298131
0.090074 0 0.318669
0.379629 0 0.358419
0.614542 0 0.379736
0.670695 0 0.395148
0 0.0813306 0.356435
0.0711986 0.126253 0.382193
0.461097 0.175189 0.430045
0.699321 0.176303 0.443
0.748806 0.207721 0.460746
0 0.378256 0.482506
0 0.429053 0.50837
0.588708 0.541741 0.54873
0.860655 0.573236 0.559243
0.906249 0.603433 0.572152
0 0.538888 0.547417
0 0.61767 0.577493
0.649973 0.780957 0.615885
0.956146 0.847974 0.62826
0.997269 0.858183 0.635157
0 0.586999 0.622827
0 0.677409 0.652598
0.67013 0.818341 0.69366
0.95816 0.885206 0.709682
1 0.891905 0.711482
0 0 0.459403
0.0371252 0 0.480598
0.406821 0 0.543923
0.646525 0 0.576349
0.701885 0 0.591745
0 0 0.532143
0.00260929 0.0960708 0.561242
0.469902 0.155749 0.63267
0.71519 0.149874 0.657038
0.765957 0.197681 0.675258
0 0.396872 0.678599
0 0.450675 0.713649
0.574121 0.561013 0.774075
0.860059 0.591684 0.798581
0.907835 0.62182 0.808988
0 0.570504 0.741527
0 0.648981 0.781598
0.623163 0.807233 0.840162
0.947387 0.875029 0.869841
0.99263 0.885008 0.873457
0 0.611627 0.772457
0 0.701701 0.808545
0.649226 0.838148 0.86183
0.950866 0.906477 0.890669
1 0.915587 0.893675
0 0 0.538155
0.0540017 0 0.56405
0.446571 0 0.634501
0.691768 0 0.667048
0.739284 0 0.682109
0 0.127993 0.603326
0 0.206668 0.644495
0.501228 0.282368 0.71722
0.758144 0.292454 0.745663
0.810758 0.332586 0.762402
0 0.418189 0.719631
0 0.480964 0.758968
0.573617 0.593118 0.822492
0.867475 0.626261 0.852216
0.917388 0.652613 0.861341
0 0.578302 0.778531
0 0.656794 0.816052
0.613489 0.809186 0.877607
0.941863 0.877317 0.912276
0.990951 0.887343 0.916259
0 0.621027 0.798077
0 0.706722 0.832792
0.637415 0.838483 0.887373
0.944671 0.908339 0.920333
0.999985 0.918898 0.924834
