Assets/Sources/Texture/LUT/DCI-P3 Kodak 2383 D55.cube
TITLE "Generated by Resolve"
LUT_3D_SIZE 33
0.0438239 0.043595 0.0514382
0.0459144 0.0443275 0.0522469
0.0473335 0.0449531 0.0530556
0.0510262 0.0458991 0.0538033
0.0552224 0.0471656 0.0543984
0.0565957 0.0484932 0.0548409
0.0618143 0.0502785 0.0552377
0.0763867 0.0530556 0.0556344
0.0897688 0.0563973 0.0560464
0.101869 0.0601663 0.0565347
0.123522 0.0641184 0.0571603
0.155459 0.0693828 0.057496
0.184939 0.0753948 0.057847
0.215854 0.0809491 0.057969
0.252659 0.0843366 0.0584726
0.29546 0.0868238 0.0586252
0.339132 0.0886549 0.059266
0.379416 0.0890059 0.0596628
0.414801 0.0880903 0.060914
0.448814 0.0843671 0.0622568
0.480568 0.0796521 0.064271
0.507515 0.0730449 0.0657816
0.52903 0.0653239 0.0671855
0.547112 0.0572976 0.0682536
0.562493 0.0488289 0.0690929
0.575387 0.0354925 0.0699474
0.585824 0.0164187 0.070634
0.5944 0.000549325 0.0714427
0.601694 0 0.0722972
0.607889 0 0.0730449
0.612512 0 0.0736706
0.616342 0 0.0741741
0.620295 0 0.0747234
0.0448157 0.0454871 0.0523842
0.0467994 0.0461891 0.0531624
0.0481117 0.0467994 0.0539254
0.051606 0.047715 0.0546273
0.0558633 0.0490272 0.0552224
0.0573281 0.0504463 0.0557107
0.062623 0.0521706 0.0561379
0.07776 0.0548562 0.0565347
0.0919051 0.0584573 0.0569314
0.104265 0.0622568 0.0574044
0.126955 0.0668956 0.0580301
0.159991 0.072343 0.0583047
0.190692 0.0784009 0.0587167
0.222675 0.08365 0.0587625
0.260349 0.0876326 0.0594339
0.303716 0.0898146 0.0595254
0.348104 0.0921187 0.0599985
0.388922 0.092546 0.0607462
0.424643 0.0916457 0.0616312
0.458915 0.0881971 0.0634623
0.490837 0.0834211 0.0651102
0.51783 0.0784009 0.0669261
0.539254 0.0717937 0.0682536
0.557076 0.0639963 0.0691081
0.572137 0.0572061 0.0699474
0.584741 0.0505226 0.0708019
0.594903 0.0431983 0.0714885
0.602991 0.037583 0.0721294
0.609751 0.0328985 0.072694
0.615564 0.0302892 0.0732586
0.619989 0.030518 0.0737926
0.623682 0.0321965 0.0743114
0.627512 0.0335393 0.074815
0.0457618 0.0468299 0.0532235
0.0476539 0.0475166 0.0539559
0.0488594 0.0481117 0.0546731
0.0521706 0.049012 0.0553597
0.0564889 0.0503548 0.0559548
0.057908 0.0517128 0.0564584
0.0633402 0.0533608 0.0569162
0.0792859 0.05626 0.0573434
0.093904 0.059968 0.0577249
0.106462 0.0637827 0.0581674
0.130327 0.0691539 0.0587625
0.164157 0.0746319 0.0590372
0.196002 0.0806897 0.0595254
0.228992 0.0856641 0.0595102
0.26746 0.0901198 0.0600748
0.311482 0.0924697 0.060502
0.356481 0.0945907 0.0607156
0.397833 0.0953384 0.0616617
0.433921 0.0944533 0.0623789
0.468452 0.0911116 0.0644694
0.500557 0.0862287 0.0660868
0.527626 0.0813458 0.0679179
0.548959 0.0763409 0.0691234
0.566567 0.0696117 0.0700847
0.581338 0.0626535 0.0709697
0.593668 0.0571298 0.0717479
0.603555 0.0533761 0.0723888
0.611353 0.049897 0.0729534
0.617868 0.0476234 0.0735332
0.623484 0.0467384 0.0740826
0.627771 0.0479744 0.0745861
0.631357 0.0504768 0.0750591
0.635065 0.0527504 0.0755627
0.0469978 0.0500801 0.0544137
0.0486915 0.05066 0.0551003
0.0496986 0.051133 0.0557717
0.0526589 0.0518959 0.0564126
0.0568093 0.0530861 0.0569924
0.0581216 0.0543374 0.0575113
0.0638743 0.0561837 0.0579995
0.0807965 0.0593729 0.0585031
0.0961471 0.0631571 0.0588083
0.109087 0.0674601 0.0593271
0.134005 0.0732738 0.0598611
0.168536 0.078584 0.0601511
0.201572 0.0843519 0.0604868
0.235691 0.0897688 0.0606546
0.275044 0.0945602 0.0609445
0.319768 0.0977493 0.0615702
0.365469 0.100084 0.0618906
0.407416 0.101106 0.0625315
0.443839 0.100618 0.0636301
0.478599 0.0974136 0.0652934
0.510857 0.0926223 0.067277
0.537987 0.0878157 0.0688792
0.559228 0.0836957 0.0702678
0.576593 0.0788434 0.0712139
0.591104 0.0741894 0.0718853
0.603174 0.0699474 0.0726482
0.612818 0.0671244 0.0732891
0.620371 0.066041 0.0738384
0.626642 0.0659648 0.074403
0.632105 0.0666972 0.0749371
0.636301 0.0686351 0.0754406
0.639796 0.0709697 0.0759136
0.643412 0.0726787 0.0763867
0.0473793 0.0543984 0.0561227
0.0490425 0.0549172 0.0567788
0.0500496 0.0553445 0.0574044
0.052903 0.0560464 0.0580148
0.057023 0.0572213 0.0585794
0.0584421 0.0586252 0.0591135
0.0646677 0.0608377 0.059678
0.0825666 0.0643168 0.0602274
0.0987411 0.0682231 0.060502
0.11249 0.0734722 0.0610971
0.138033 0.0789502 0.0614786
0.17351 0.0841535 0.0618448
0.207996 0.0903334 0.0619974
0.24332 0.0966659 0.0623636
0.28365 0.10222 0.0625467
0.329091 0.105013 0.0628672
0.375677 0.107424 0.0633707
0.418311 0.108736 0.0641794
0.455146 0.108675 0.0648661
0.490105 0.106645 0.0667582
0.522438 0.103487 0.0684062
0.549554 0.0997787 0.0701762
0.570642 0.0955367 0.0713359
0.587777 0.0916609 0.0722057
0.601953 0.088365 0.0729839
0.613809 0.0857099 0.0738079
0.623285 0.0844282 0.0744488
0.630655 0.0843366 0.0749523
0.63682 0.0852674 0.0754559
0.642191 0.0867628 0.0759899
0.646311 0.0890364 0.0765087
0.64976 0.0916762 0.0769665
0.65333 0.0941024 0.077409
0.0482643 0.0572518 0.0580758
0.0500801 0.0577401 0.0586862
0.0510109 0.0581216 0.0592966
0.0536965 0.058793 0.0598764
0.0579843 0.0600443 0.060441
0.0596933 0.0616922 0.0609903
0.0667124 0.0642863 0.0616007
0.0852064 0.0677806 0.0621042
0.101762 0.0722362 0.062501
0.116228 0.0777905 0.0630198
0.142016 0.0827344 0.0633097
0.178927 0.0886244 0.0637675
0.21471 0.0953384 0.0638743
0.25124 0.102647 0.0640574
0.292271 0.107393 0.0645151
0.338781 0.110948 0.0648966
0.386389 0.113588 0.0649729
0.429831 0.115343 0.0660563
0.467079 0.11577 0.0666209
0.502129 0.113924 0.0683604
0.534493 0.111223 0.0699016
0.561547 0.108232 0.0713359
0.582498 0.105867 0.0725261
0.599329 0.103288 0.0734569
0.613214 0.100252 0.0742657
0.624857 0.0982071 0.0750134
0.634226 0.0981613 0.0756237
0.64155 0.099321 0.0761883
0.647654 0.101061 0.0767224
0.652995 0.103182 0.0772412
0.657099 0.10544 0.0776989
0.660548 0.107652 0.0781567
0.664103 0.109957 0.0786603
0.0484474 0.0626993 0.060441
0.0505531 0.0631876 0.0610361
0.051606 0.0635843 0.0616312
0.0544137 0.064332 0.0621958
0.0595254 0.066041 0.0628214
0.0615244 0.0679637 0.063386
0.0687877 0.0706645 0.0639963
0.0880293 0.0742657 0.0644694
0.104677 0.0791638 0.0650034
0.119783 0.0842908 0.0652323
0.146838 0.0899977 0.0657664
0.184985 0.0962844 0.0660258
0.222034 0.103792 0.066331
0.259525 0.11046 0.0661784
0.301701 0.116045 0.0664378
0.349248 0.120287 0.0671092
0.397955 0.123751 0.0672465
0.442252 0.126055 0.0678416
0.479942 0.127092 0.0686961
0.515129 0.125856 0.0699474
0.547478 0.123583 0.071458
0.574456 0.121187 0.0726482
0.595254 0.119051 0.0738842
0.611795 0.116793 0.0747082
0.625391 0.115496 0.0755322
0.636851 0.114809 0.0763409
0.646143 0.115282 0.0769665
0.653437 0.116579 0.0774701
0.659541 0.118379 0.0779278
0.664881 0.120699 0.0784314
0.669001 0.123537 0.0789197
0.672465 0.126635 0.0794232
0.676051 0.129641 0.0799115
0.0448615 0.0746166 0.0637522
0.0476387 0.0751965 0.064332
0.0493629 0.0757153 0.0649271
0.0535897 0.0766918 0.065507
0.0591745 0.0784772 0.0661021
0.0611887 0.0805524 0.0666819
0.0696269 0.0832227 0.0671092
0.090486 0.0871138 0.0676738
0.107561 0.0921035 0.0682231
0.124361 0.0978714 0.0684825
0.152438 0.104112 0.068864
0.192004 0.110903 0.0691386
0.23035 0.118334 0.0691844
0.269215 0.125765 0.068986
0.31249 0.131853 0.0692454
0.361135 0.137011 0.0694285
0.410986 0.1411 0.0695811
0.456168 0.144274 0.0702068
0.494347 0.145953 0.0707103
0.529702 0.145785 0.0719615
0.562081 0.144625 0.0730907
0.589044 0.143221 0.0742351
0.609735 0.142077 0.0752728
0.626032 0.14081 0.0762341
0.639384 0.139864 0.0769818
0.650675 0.139895 0.0776379
0.659876 0.141054 0.0781415
0.667124 0.143038 0.0786145
0.673198 0.14522 0.0790417
0.678523 0.147585 0.0795148
0.682689 0.150393 0.0800031
0.686198 0.153475 0.0805371
0.68983 0.156527 0.0810407
0.0402075 0.0864271 0.067628
0.0434424 0.087129 0.0682841
0.0455482 0.0876936 0.0689097
0.0510414 0.0887312 0.0695048
0.0572518 0.0905623 0.0700694
0.0598154 0.0927291 0.070634
0.0698253 0.0956588 0.0711528
0.0931563 0.100038 0.0717327
0.112169 0.105501 0.0722515
0.129396 0.111742 0.0727245
0.159075 0.118456 0.0728618
0.199695 0.125628 0.0731518
0.239689 0.133654 0.0730297
0.280018 0.141558 0.0725719
0.324453 0.148333 0.0726024
0.374212 0.15407 0.0725719
0.425177 0.158724 0.0726329
0.471382 0.162921 0.0730907
0.510124 0.165515 0.0734264
0.545708 0.165972 0.0745251
0.578195 0.165698 0.0754864
0.605188 0.16495 0.076585
0.625849 0.164736 0.0772869
0.641993 0.163729 0.0780346
0.655146 0.163241 0.0787518
0.6663 0.164004 0.0792706
0.675395 0.165713 0.0796979
0.682536 0.168048 0.0800336
0.688563 0.170779 0.0803693
0.693904 0.173922 0.0809339
0.698116 0.177356 0.0814221
0.701732 0.18088 0.0818799
0.705455 0.184298 0.0823224
0.0339055 0.0976883 0.07187
0.0378576 0.0984207 0.0725109
0.0405127 0.0990158 0.0731212
0.0487984 0.100221 0.0738079
0.0574044 0.102281 0.0744488
0.0607919 0.104677 0.0751659
0.0710613 0.107866 0.0758679
0.0949721 0.112428 0.0764477
0.116915 0.118471 0.0769207
0.134951 0.125246 0.0773632
0.166018 0.132586 0.0775616
0.208392 0.140291 0.0775464
0.249775 0.14876 0.077348
0.291341 0.157092 0.0769513
0.337133 0.164508 0.0765698
0.388083 0.171099 0.0763409
0.440391 0.177111 0.0762188
0.487587 0.182055 0.0762493
0.526864 0.184848 0.0766613
0.562799 0.186404 0.0772717
0.595392 0.186511 0.0781109
0.622461 0.186435 0.0788281
0.643137 0.186801 0.0795453
0.659205 0.186618 0.0799878
0.672221 0.186481 0.0805371
0.683238 0.187259 0.0811322
0.692241 0.189288 0.0816052
0.699245 0.191913 0.0818799
0.70518 0.194949 0.0821393
0.710552 0.198444 0.0824903
0.714885 0.20267 0.0829786
0.718639 0.206806 0.0836652
0.722484 0.210636 0.0842145
0.00381476 0.115145 0.0768292
0.0218357 0.115984 0.0774548
0.0237278 0.11667 0.0779889
0.0346838 0.117937 0.0785229
0.0526436 0.120272 0.0791333
0.0574807 0.123079 0.0798657
0.069749 0.126757 0.0806134
0.0967117 0.131899 0.0811933
0.119722 0.138491 0.0816052
0.141009 0.146029 0.0818341
0.173068 0.154025 0.0819715
0.217456 0.162524 0.0817731
0.260624 0.171603 0.081178
0.304082 0.18085 0.0805524
0.351003 0.188952 0.0798962
0.403006 0.195941 0.0794995
0.456565 0.202655 0.0790723
0.504891 0.208743 0.0787671
0.544854 0.21265 0.0787823
0.581094 0.214725 0.0791943
0.613855 0.215488 0.0798352
0.641062 0.216175 0.0804303
0.661753 0.216602 0.0810712
0.677791 0.217044 0.0814832
0.6907 0.21738 0.0818036
0.701625 0.218402 0.0821393
0.710491 0.220356 0.0825971
0.717388 0.223072 0.0830243
0.723247 0.226398 0.0832532
0.728618 0.230228 0.0835737
0.733043 0.234699 0.0839551
0.736889 0.239094 0.0843977
0.740841 0.243305 0.0850385
0 0.139712 0.0831159
0 0.140642 0.0833906
0 0.141466 0.083772
0.00885023 0.142794 0.0840009
0.0276036 0.145235 0.0841535
0.0454414 0.148531 0.0847334
0.0637827 0.152865 0.0856336
0.09691 0.158755 0.0861067
0.123842 0.166262 0.0864118
0.145968 0.174716 0.0864424
0.181231 0.183825 0.0864576
0.227344 0.19324 0.0859998
0.272496 0.203159 0.0850996
0.317723 0.213214 0.0839094
0.366064 0.222156 0.0828717
0.419272 0.229953 0.0818494
0.474235 0.237751 0.0810101
0.523491 0.244221 0.080415
0.564187 0.24892 0.0800793
0.600748 0.251484 0.0803845
0.633783 0.253071 0.0805524
0.661112 0.254261 0.0810254
0.681895 0.2551 0.0811933
0.697887 0.255665 0.0818189
0.710735 0.256428 0.0820325
0.721584 0.257801 0.0821546
0.730388 0.259968 0.0823682
0.737179 0.26276 0.0827649
0.742947 0.266163 0.082887
0.748302 0.2701 0.0831159
0.752728 0.274495 0.0834058
0.756634 0.279149 0.0837262
0.760632 0.283742 0.0842145
0 0.164462 0.0897688
0 0.165728 0.0901045
6.10361e-05 0.166857 0.090547
0 0.168444 0.0906081
0 0.171023 0.0903487
0.0115358 0.174609 0.0905623
0.0507057 0.179324 0.0912337
0.0959487 0.185946 0.0914626
0.126452 0.194491 0.0917067
0.152148 0.204105 0.0916457
0.189364 0.214298 0.0912032
0.237675 0.22472 0.0905318
0.285283 0.235676 0.0888838
0.332647 0.246754 0.0872358
0.382574 0.256565 0.0853285
0.437156 0.265354 0.084062
0.493217 0.273716 0.0829938
0.543481 0.280751 0.0818799
0.584878 0.286046 0.0813764
0.621805 0.289097 0.0810559
0.655131 0.291249 0.0809186
0.682658 0.292775 0.0810254
0.703593 0.294179 0.0809644
0.719539 0.294865 0.0813001
0.732326 0.29572 0.081529
0.74313 0.297276 0.0817121
0.751858 0.299641 0.0817884
0.758572 0.302602 0.0820935
0.764279 0.306127 0.0821546
0.769589 0.310262 0.0822614
0.774029 0.315175 0.0823987
0.777951 0.320409 0.0825513
0.781933 0.325307 0.0828717
0 0.189517 0.0959793
0 0.191058 0.0963912
0 0.192447 0.0968795
0 0.194415 0.0970474
0 0.197574 0.09691
0 0.201724 0.0972457
0.0193027 0.206668 0.0970932
0.0916915 0.213916 0.0971847
0.128328 0.223468 0.0971847
0.157534 0.234257 0.0967575
0.196796 0.245579 0.0962081
0.248432 0.25713 0.0949416
0.298466 0.269261 0.0930037
0.348089 0.281376 0.0903334
0.399588 0.292241 0.0880598
0.455512 0.301915 0.086305
0.512734 0.310948 0.0843519
0.564126 0.318761 0.0829938
0.60621 0.32459 0.0818952
0.643748 0.328435 0.0809491
0.677256 0.330785 0.0803998
0.704997 0.332662 0.0799878
0.725994 0.334112 0.0797742
0.742046 0.335119 0.0799725
0.754772 0.336034 0.079942
0.765515 0.337652 0.0800793
0.774197 0.340093 0.0801251
0.780835 0.343221 0.0803235
0.786542 0.347051 0.0802625
0.791852 0.351568 0.0802014
0.796216 0.35671 0.0801862
0.800046 0.36202 0.0802014
0.803967 0.367163 0.0803388
0 0.217609 0.10341
0 0.219455 0.103731
0 0.221118 0.104143
0 0.223438 0.104204
0 0.227115 0.103914
0 0.231785 0.103868
0.0117494 0.237324 0.103304
0.0821698 0.244968 0.102541
0.129427 0.255634 0.102495
0.161212 0.267567 0.101961
0.205234 0.28014 0.100938
0.258457 0.292882 0.0993362
0.311604 0.306371 0.0965286
0.362966 0.319692 0.0932174
0.416556 0.331838 0.090013
0.47364 0.342473 0.0869764
0.532143 0.352483 0.0845197
0.584604 0.361166 0.0823835
0.627482 0.367712 0.0803998
0.665324 0.371923 0.079057
0.699351 0.374945 0.0776684
0.727398 0.377295 0.0767376
0.748547 0.379004 0.0761425
0.76463 0.380011 0.0758984
0.777371 0.380987 0.0759747
0.788144 0.382757 0.0759442
0.796841 0.385412 0.0757763
0.803433 0.388586 0.0755932
0.809003 0.392264 0.0753948
0.814176 0.396582 0.0751812
0.818479 0.401679 0.0749218
0.822248 0.40708 0.0746624
0.826154 0.41236 0.0741741
0 0.248203 0.108812
0 0.250416 0.109194
0 0.252384 0.109636
0 0.255131 0.109743
0 0.259525 0.109529
1.5259e-05 0.265156 0.109667
0 0.271489 0.108843
0.05066 0.279759 0.107286
0.129046 0.291463 0.106889
0.165469 0.304677 0.106172
0.212299 0.318578 0.104967
0.268803 0.332708 0.102846
0.324193 0.347646 0.099382
0.378027 0.362539 0.0951247
0.433112 0.376013 0.0905318
0.49163 0.387869 0.086717
0.551492 0.399039 0.0829023
0.605051 0.408682 0.0793622
0.648783 0.416114 0.0762036
0.687373 0.421256 0.0726329
0.721752 0.424811 0.069749
0.750088 0.427512 0.0675975
0.771527 0.429557 0.0658122
0.787625 0.430503 0.0656748
0.80029 0.43122 0.0657816
0.810971 0.432761 0.0655222
0.819623 0.43534 0.0647746
0.826215 0.438514 0.0643626
0.831754 0.442191 0.0639963
0.836835 0.446372 0.0638285
0.84097 0.451148 0.0633555
0.844556 0.456184 0.0624552
0.848219 0.461021 0.0613413
0 0.279805 0.114595
0 0.282368 0.115099
0 0.284611 0.115557
0 0.28777 0.115618
0 0.292866 0.115389
0 0.299321 0.115404
0 0.306737 0.114519
0.0462501 0.315831 0.112474
0.125231 0.328389 0.111223
0.167834 0.342931 0.110201
0.218784 0.35816 0.10837
0.278798 0.373785 0.105882
0.337194 0.390341 0.101839
0.393179 0.406806 0.0964523
0.450156 0.421759 0.0905928
0.510109 0.434913 0.0850843
0.571298 0.447257 0.0797436
0.626017 0.457954 0.07364
0.670695 0.46627 0.0669413
0.709941 0.472145 0.0618601
0.744839 0.47631 0.0580758
0.773556 0.479454 0.0526436
0.795163 0.481621 0.0484932
0.811307 0.482444 0.0465553
0.823911 0.482933 0.0463264
0.834623 0.484382 0.0453956
0.843244 0.486915 0.0438239
0.84976 0.490043 0.0424353
0.855207 0.493614 0.0399939
0.860151 0.497551 0.031754
0.864088 0.502037 0.0258183
0.867506 0.506813 0.024918
0.870985 0.511406 0.0239414
0 0.308782 0.119707
0 0.311574 0.120073
0 0.314199 0.12079
0 0.317861 0.12105
0 0.323598 0.120821
0 0.3308 0.12079
0 0.339147 0.119905
0.0385748 0.348989 0.117205
0.120378 0.362417 0.115389
0.170642 0.378164 0.11368
0.225025 0.394644 0.11133
0.2878 0.411627 0.108141
0.34905 0.429664 0.103609
0.407507 0.447684 0.0968338
0.465995 0.463981 0.0897231
0.527398 0.47837 0.0827192
0.589853 0.491875 0.0744945
0.645823 0.503655 0.0637827
0.691325 0.512825 0.0557107
0.731136 0.519341 0.0404364
0.766613 0.524163 0.0191653
0.796048 0.52813 0.0087129
0.818189 0.530816 0.00793469
0.834485 0.531746 0.00723278
0.84712 0.532174 0.007187
0.857832 0.533578 0.0068513
0.866621 0.536233 0.00627146
0.873198 0.539422 0.00572213
0.878614 0.542947 0.00477607
0.883513 0.546761 0.00115969
0.887343 0.551019 0
0.890532 0.555444 0
0.893889 0.559792 0
0 0.333623 0.124453
0 0.336934 0.125017
0 0.339925 0.125689
0 0.34403 0.125933
0 0.350301 0.125612
0 0.358129 0.125246
0 0.367117 0.123857
0.0276799 0.37763 0.120729
0.114824 0.391836 0.118059
0.173159 0.408606 0.116304
0.230716 0.426184 0.113466
0.296452 0.444343 0.109346
0.35938 0.463661 0.104082
0.419791 0.482994 0.0961318
0.479683 0.500526 0.0874495
0.542382 0.516045 0.0783703
0.605982 0.530648 0.0657206
0.662791 0.543389 0.0500496
0.708904 0.553307 0.0118868
0.750225 0.561471 0.000686656
0.786755 0.56759 0.000274662
0.816754 0.572244 0
0.839185 0.575357 0
0.855863 0.576684 0
0.868666 0.577295 0
0.879377 0.578729 0
0.888167 0.581308 0
0.894759 0.584375 0
0.900099 0.587671 0
0.904768 0.591119 0
0.908278 0.594858 0
0.911162 0.598733 0
0.91429 0.602609 0
0 0.357397 0.129351
0 0.361151 0.129732
0 0.364462 0.130037
0 0.369039 0.130053
0 0.37583 0.129519
0 0.384192 0.129122
0 0.39379 0.12755
0.00575265 0.404868 0.123568
0.104417 0.419806 0.1205
0.175158 0.437522 0.117891
0.236103 0.456153 0.114122
0.303944 0.475441 0.109682
0.368994 0.49601 0.103136
0.430976 0.516625 0.093492
0.492287 0.535393 0.0828107
0.555764 0.552026 0.0706035
0.620203 0.567712 0.0485847
0.67805 0.581811 0.00572213
0.726055 0.593957 0
0.76791 0.603052 3.0518e-05
0.80528 0.609979 0
0.835843 0.615335 0
0.858701 0.619013 0
0.875669 0.620783 0
0.88867 0.621759 0
0.899626 0.623362 0
0.908385 0.625788 0
0.914733 0.628443 0
0.919829 0.631251 0
0.924331 0.63418 0
0.927581 0.637278 0
0.930144 0.640452 0
0.932891 0.64358 0
0 0.378882 0.132433
0 0.383139 0.132738
0 0.387045 0.133165
0 0.392081 0.133074
0 0.39939 0.132418
0 0.408225 0.131792
7.62951e-05 0.418418 0.13019
0 0.430167 0.125978
0.0962692 0.445701 0.121813
0.17705 0.464225 0.118761
0.24097 0.483818 0.114611
0.310475 0.504143 0.108949
0.377432 0.525856 0.101061
0.440848 0.547646 0.0899367
0.503288 0.567544 0.0774701
0.567529 0.585214 0.0565347
0.633066 0.602274 0.0140993
0.692576 0.618555 0
0.741253 0.631724 0
0.784054 0.641718 0
0.821927 0.649378 0
0.852934 0.655329 0
0.876219 0.659571 0
0.893568 0.66186 0
0.906889 0.663233 0
0.917845 0.664942 0
0.926604 0.667247 0
0.932906 0.669596 0
0.93785 0.671946 0
0.942107 0.674342 0
0.945052 0.676738 0
0.94725 0.679149 0
0.949584 0.681514 0
0 0.396704 0.135256
0 0.401328 0.135332
0 0.405692 0.135805
0 0.41117 0.13576
0 0.418936 0.134874
0 0.428183 0.13402
0 0.438834 0.132204
0 0.451133 0.127871
0.0958572 0.467124 0.1234
0.179477 0.48629 0.119463
0.245533 0.50663 0.114458
0.316625 0.527764 0.108431
0.384939 0.550408 0.0992599
0.449546 0.573129 0.0866712
0.512764 0.593927 0.0706645
0.577829 0.612543 0.0394903
0.644434 0.631266 0
0.704936 0.648798 0
0.754101 0.662699 0
0.797421 0.673381 0
0.83566 0.681636 0
0.867262 0.688182 0
0.890867 0.692912 0
0.908446 0.695628 0
0.92224 0.697444 0
0.93344 0.699351 0
0.942123 0.701518 0
0.948226 0.703563 0
0.952972 0.705531 0
0.957076 0.707485 0
0.959762 0.709361 0
0.961685 0.711177 0
0.96376 0.712978 0
0 0.409674 0.137484
0 0.414816 0.137743
0 0.419593 0.138109
0 0.425498 0.137804
0 0.433631 0.136736
0 0.443122 0.135576
0 0.454032 0.133577
0 0.466636 0.129213
0.0969558 0.483009 0.124315
0.182544 0.502602 0.119997
0.249683 0.52343 0.114961
0.32192 0.545144 0.108186
0.391012 0.568368 0.0982528
0.456153 0.59173 0.0843061
0.520134 0.613199 0.064271
0.585687 0.632639 0.0274205
0.653284 0.652689 0
0.713954 0.670832 0
0.763851 0.685405 0
0.807355 0.696605 0
0.846113 0.705379 0
0.877928 0.712352 0
0.902022 0.717556 0
0.919921 0.720699 0
0.933745 0.722759 0
0.945159 0.724849 0
0.954009 0.727047 0
0.960113 0.728923 0
0.964782 0.730632 0
0.968704 0.73228 0
0.971237 0.733806 0
0.973022 0.735271 0
0.974929 0.736721 0
0 0.419333 0.139269
0 0.424933 0.139284
0 0.430152 0.139483
0 0.436454 0.139116
0 0.444831 0.137881
0 0.454429 0.136477
0 0.465507 0.134661
0 0.478309 0.130053
0.0988479 0.494942 0.124865
0.18555 0.514839 0.120668
0.253544 0.535973 0.115099
0.326101 0.558053 0.108125
0.395636 0.581704 0.0971084
0.460868 0.605493 0.082414
0.525109 0.62742 0.0585794
0.591348 0.647547 0.0119936
0.659541 0.668605 0
0.720684 0.687343 0
0.770809 0.702419 0
0.814557 0.714076 0
0.853605 0.723323 0
0.885634 0.730663 0
0.910033 0.736294 0
0.928206 0.739818 0
0.942473 0.74229 0
0.954101 0.74461 0
0.962844 0.746746 0
0.968887 0.748455 0
0.973541 0.749966 0
0.977493 0.751461 0
0.979965 0.752758 0
0.981659 0.753933 0
0.98352 0.755154 0
0 0.42707 0.140536
0 0.433173 0.14052
0 0.438865 0.140627
0 0.445548 0.140139
0 0.454124 0.138781
0 0.463935 0.137743
0 0.475029 0.135454
0 0.487938 0.130602
0.102632 0.504768 0.125582
0.190005 0.524804 0.121157
0.25832 0.546151 0.115511
0.330526 0.568429 0.108125
0.39968 0.592309 0.0965133
0.465415 0.616388 0.0812085
0.529549 0.638636 0.0547036
0.596124 0.659373 0
0.664515 0.68101 9.15541e-05
0.725933 0.700206 0
0.776089 0.715679 0
0.820172 0.727749 0
0.85922 0.737331 0
0.891508 0.745083 0
0.915938 0.750988 0
0.934691 0.755001 0
0.949081 0.757748 0
0.960723 0.760189 0
0.969665 0.762356 0
0.97586 0.764004 0
0.980453 0.765362 0
0.984329 0.766674 0
0.986755 0.767788 0
0.988388 0.76878 0
0.990204 0.769802 0
0 0.433921 0.142046
0 0.440558 0.141848
0 0.446754 0.141741
0 0.45388 0.141299
0 0.462821 0.1402
0 0.472724 0.138857
0.000137331 0.483879 0.136172
0 0.496773 0.131167
0.109087 0.513848 0.126543
0.197986 0.533974 0.122011
0.26482 0.555322 0.116411
0.336019 0.577691 0.108583
0.404868 0.601648 0.0969558
0.470375 0.625803 0.0810864
0.534463 0.648219 0.0535744
0.600809 0.669306 0
0.669108 0.691188 0
0.730495 0.710674 0
0.780468 0.726375 0
0.824781 0.738766 0
0.86389 0.748623 0
0.896162 0.756588 0
0.920958 0.762829 0
0.939803 0.767132 0
0.954543 0.770169 0
0.966415 0.772778 0
0.975433 0.77499 0
0.981476 0.776501 0
0.986023 0.777737 0
0.989899 0.778943 0
0.992309 0.779904 0
0.993896 0.780743 0
0.995743 0.781613 0
0 0.439429 0.14345
0 0.446616 0.142885
0 0.453468 0.142931
0 0.461189 0.142535
0 0.470451 0.141299
0 0.480491 0.139559
0 0.491661 0.136736
0.0178683 0.504646 0.131807
0.130282 0.521874 0.127535
0.207126 0.541955 0.123095
0.27216 0.563226 0.117113
0.342229 0.585504 0.109255
0.410605 0.6094 0.0974594
0.475547 0.633524 0.0814221
0.539239 0.655909 0.0535897
0.605188 0.677073 0
0.67306 0.699031 0
0.734249 0.718608 0
0.784192 0.734462 0
0.828443 0.747021 0
0.867399 0.757031 0
0.899916 0.765225 0
0.924788 0.771664 0
0.943694 0.776135 0
0.95874 0.779416 0
0.970764 0.782162 0
0.979736 0.78436 0
0.985855 0.78584 0
0.990509 0.787045 0
0.99443 0.788205 0
0.996887 0.789105 0
0.998611 0.789899 0
0.999557 0.790311 0
0 0.443824 0.144869
0 0.451713 0.144305
0 0.459312 0.144274
0 0.467567 0.143664
0 0.47715 0.142092
0 0.487343 0.1402
0 0.498497 0.137255
0.044358 0.511666 0.132601
0.151232 0.528954 0.128862
