Assets/Sources/Texture/LUT/Rec709 Kodak 2383 D55.cube
TITLE "Generated by Resolve"
LUT_3D_SIZE 9
0.027451 0.0279393 0.0306249
0.0386816 0.0308385 0.0333715
0.0741436 0.0387579 0.0335699
0.171252 0.0500343 0.0151064
0.343679 0.0467994 0
0.511864 0 0
0.613489 0 0
0.66157 0 0
0.683619 0 0
0.0244602 0.0398718 0.0353552
0.0377508 0.0425422 0.0373999
0.0826429 0.0526284 0.0366979
0.194324 0.064683 0.0100404
0.384009 0.0698558 0
0.556664 0.00543221 0
0.65597 0 0
0.69865 0 0
0.717357 0 0
0 0.0733501 0.0459297
0.0235599 0.076524 0.0464637
0.0899367 0.0897231 0.0442359
0.225177 0.111086 0.00828565
0.437552 0.132815 0
0.61912 0.129885 0
0.711757 0.117769 0
0.751766 0.124331 0
0.771282 0.141878 0
0 0.151369 0.0573129
0 0.158419 0.0564889
0.0688334 0.179339 0.0422522
0.26598 0.222751 4.57771e-05
0.509819 0.265522 0
0.704692 0.282979 0
0.798856 0.285649 0
0.837507 0.297353 0
0.857877 0.31986 0
0 0.269017 0.0373846
0 0.283452 0.0162356
0.000213626 0.326177 4.57771e-05
0.295827 0.399695 0
0.585657 0.469368 0
0.800214 0.504402 0
0.899199 0.512001 0
0.937484 0.524514 0
0.955474 0.545693 0
0 0.378714 0
0 0.4038 0
0 0.463523 0
0.299733 0.560296 0
0.636164 0.656367 0
0.871351 0.709865 0
0.978393 0.725246 0
1 0.729076 0
1 0.735485 0
0 0.433875 0
0 0.467643 0
0 0.533745 0
0.29984 0.640299 0
0.657176 0.749722 0
0.90219 0.814572 0
1 0.832975 0
1 0.828916 0
1 0.83035 0
0 0.457877 0
0 0.50341 0
0 0.570123 0
0.32285 0.674784 0
0.670283 0.783444 0
0.91252 0.850523 0
1 0.868772 0
1 0.865156 0
1 0.86508 0
0 0.489479 0
0 0.549996 0
0 0.611658 0
0.385855 0.704936 0
0.691325 0.800061 0
0.915648 0.861845 0
1 0.880217 0
1 0.876905 0
1 0.875227 0
0.0267033 0.0294499 0.0415961
0.0364843 0.0320439 0.0449989
0.0770886 0.0403143 0.0462196
0.179522 0.0511482 0.0383764
0.351278 0.00750744 0
0.524086 0 0
0.624994 0 0
0.67248 0 0
0.694041 0 0
0.0222934 0.0421149 0.0475624
0.035996 0.044831 0.0496986
0.0856184 0.0553902 0.0511788
0.202319 0.067155 0.04065
0.391684 0.0551461 0
0.569131 3.0518e-05 0
0.667979 0 0
0.709926 0 0
0.728054 0 0
0 0.0779431 0.0602426
0.00523384 0.0814374 0.0607156
0.0929732 0.0950637 0.0608988
0.233921 0.116503 0.0462959
0.446387 0.129946 0
0.62916 0.123018 0
0.721294 0.105806 0
0.760616 0.112627 0
0.780133 0.134813 0
0 0.16144 0.0757916
0 0.168948 0.0758221
0.0606851 0.190997 0.0655985
0.271885 0.231052 0.00482185
0.52134 0.273503 0
0.717769 0.290227 0
0.811414 0.29221 0
0.849256 0.30428 0
0.869337 0.327581 0
0 0.284932 0.072282
0 0.300465 0.067155
0 0.340154 0
0.300481 0.416342 0
0.598688 0.487556 0
0.815183 0.52224 0
0.913756 0.52958 0
0.951446 0.542596 0
0.968887 0.563699 0
0 0.391836 0.0218814
0 0.417746 0
0 0.479316 0
0.299138 0.578347 0
0.647807 0.676738 0
0.885756 0.730495 0
0.992554 0.746151 0
1 0.743938 0
1 0.750637 0
0 0.44358 0
0 0.478279 0
0 0.546105 0
0.297536 0.65391 0
0.665324 0.764736 0
0.913115 0.829709 0
1 0.844602 0
1 0.840009 0
1 0.841016 0
0 0.46714 0.0602731
0 0.509667 0
0 0.57702 0
0.308339 0.68188 0
0.670054 0.791333 0
0.916823 0.858625 0
1 0.875151 0
1 0.871031 0
1 0.870222 0
0 0.508507 0.163348
0 0.561288 0.144137
0 0.61413 0.0970779
0.345708 0.700114 0
0.670375 0.79443 0
0.900221 0.855665 0
1 0.877546 0
1 0.873793 0
1 0.869337 0
0.0216983 0.0296941 0.0776837
0.0378576 0.0318303 0.0806287
0.0773632 0.0407111 0.0847334
0.18265 0.0500343 0.0868849
0.356893 0 0.0810559
0.530343 0 0.0759899
0.631189 0 0.0666667
0.678462 0 0.0639048
0.699931 0 0.0720836
0.00244144 0.0440833 0.0858778
0.0325933 0.0480964 0.088304
0.0847486 0.0571756 0.0928817
0.20557 0.068986 0.0946517
0.393439 0.0184176 0.0831922
0.574365 0 0.0725414
0.673304 0 0.0555123
0.714794 0 0.0552682
0.732158 0 0.0610513
0 0.0852369 0.105623
0 0.0891585 0.106752
0.0881666 0.102266 0.109728
0.236728 0.123674 0.11014
0.446555 0.124575 0.0948653
0.621271 0.0694591 0.0490272
0.714534 0 0.0244755
0.753033 0.0010071 4.57771e-05
0.768429 0.0392004 0.00114443
0 0.176623 0.13254
0 0.183215 0.132982
0.00700389 0.205066 0.130434
0.270069 0.243992 0.123873
0.515343 0.270634 0.0906233
0.706508 0.272984 0
0.801114 0.27187 0
0.83888 0.283757 0
0.857542 0.307759 0
0 0.307271 0.151141
0 0.322454 0.151308
0 0.361181 0.141451
0.279454 0.423224 0.102998
0.584039 0.483391 0
0.805508 0.517388 0.000122072
0.905241 0.52369 0
0.942321 0.535607 0
0.958175 0.556115 0
0 0.417319 0.157321
0 0.441291 0.154589
0 0.494392 0.133501
0.255116 0.577996 0.00691234
0.629465 0.675975 0
0.873701 0.72958 0
0.982803 0.744945 0
0.999954 0.745388 0
1 0.751629 0
0 0.46836 0.171786
0 0.499718 0.167514
0 0.558007 0.143053
0.222827 0.649165 0.00585946
0.639826 0.759884 0
0.895171 0.824887 0
1 0.844739 0
1 0.839292 0
1 0.839445 0
0 0.495933 0.215351
0 0.535958 0.211887
0 0.593576 0.196063
0.219623 0.678187 0.119997
0.632654 0.777111 0
0.886946 0.844297 0
1 0.869261 1.5259e-05
1 0.864363 0
1 0.862303 0
0 0.537713 0.300908
0 0.590494 0.303319
0 0.643107 0.296071
0.285679 0.717128 0.271122
0.636576 0.794797 0.235294
0.8645 0.842344 0.181888
0.97789 0.862516 0.131426
1 0.86244 0.11136
1 0.860502 0.121462
0.00363165 6.10361e-05 0.161196
0.0324712 0.00170901 0.165408
0.0791791 0.00830091 0.176104
0.187655 0.0110933 0.18851
0.37052 0 0.201068
0.545663 0 0.213977
0.646128 0 0.219471
0.693095 0 0.225772
0.71458 0 0.234653
0 0.0314794 0.175937
0.00575265 0.0404822 0.179721
0.0825971 0.0511482 0.191684
0.210025 0.0605478 0.205051
0.40499 0 0.213077
0.588846 0 0.225208
0.6878 0 0.230884
0.728618 0 0.236591
0.745815 0 0.244434
0 0.0855573 0.209552
0 0.0919814 0.213931
0.0698863 0.111025 0.22153
0.237644 0.13106 0.235966
0.454734 0.130953 0.24152
0.632166 0.0769207 0.237522
0.724575 0 0.237903
0.76173 0 0.240467
0.777447 0.0549477 0.247715
0 0.197391 0.255619
0 0.204486 0.259174
0.000213626 0.229114 0.267506
0.259586 0.265522 0.273716
0.519158 0.29163 0.276417
0.713329 0.291966 0.269932
0.80351 0.283055 0.264576
0.839582 0.293172 0.266636
0.858137 0.319493 0.275486
0 0.340185 0.294957
0 0.35552 0.300023
0 0.395331 0.306401
0.240665 0.454871 0.302602
0.57409 0.509056 0.297887
0.792828 0.529427 0.28423
0.890211 0.529564 0.275669
0.925963 0.539239 0.275975
0.941466 0.561563 0.283391
0 0.457328 0.321523
0 0.481102 0.326192
0 0.534081 0.330022
0.126238 0.612604 0.316228
0.599207 0.692195 0.299748
0.84332 0.731106 0.275441
0.950637 0.740063 0.261997
0.987228 0.746395 0.261341
0.997879 0.757458 0.268971
0 0.508782 0.343893
0 0.540032 0.350576
0 0.59855 0.354498
0.0815442 0.683986 0.337285
0.601358 0.774563 0.317464
0.858167 0.824033 0.289082
0.972702 0.840146 0.272511
1 0.841611 0.266392
1 0.842237 0.27126
0 0.535531 0.388128
0 0.576089 0.398489
0 0.632471 0.401907
0.0644083 0.714534 0.38732
0.598581 0.803891 0.375692
0.855589 0.855726 0.355047
0.973312 0.874693 0.340185
1 0.875654 0.331289
1 0.874128 0.335042
0 0.57174 0.455085
0 0.623484 0.466865
0 0.676493 0.471077
0.142046 0.747616 0.461906
0.609628 0.824842 0.459968
0.848814 0.872389 0.451209
0.965621 0.891691 0.44271
1 0.895369 0.437644
1 0.893233 0.439155
0 0 0.275624
0 0 0.279591
0.0767376 0 0.2934
0.20351 0 0.315953
0.390341 0 0.337469
0.564508 0 0.356237
0.664881 0 0.367178
0.710277 0 0.373556
0.730755 0 0.382818
0 0 0.294621
0 0 0.298939
0.0821698 0.000137331 0.314199
0.219776 0 0.337835
0.424369 0 0.360113
0.606531 0 0.377661
0.705425 0 0.387961
0.745113 0 0.394873
0.761486 0 0.402686
0 0.0439002 0.328435
0 0.0673228 0.338018
0.0288396 0.110918 0.355367
0.239857 0.129259 0.381567
0.463279 0.126223 0.399283
0.643061 0.0600595 0.404883
0.737163 0 0.410315
0.773663 0 0.414939
0.788006 0.0519417 0.422583
0 0.207752 0.400122
0 0.213275 0.406897
0 0.244831 0.423972
0.244022 0.284886 0.438193
0.520775 0.310079 0.455665
0.718883 0.310155 0.459846
0.810269 0.301259 0.459205
0.846189 0.311833 0.46302
0.864424 0.339803 0.473335
0 0.368963 0.458503
0 0.384344 0.467811
0 0.426032 0.48368
0.139162 0.484871 0.487434
0.562966 0.538491 0.502953
0.789395 0.558175 0.504707
0.88922 0.557809 0.5028
0.925429 0.567575 0.50515
0.940459 0.589731 0.512474
0 0.492287 0.493843
0 0.517342 0.506447
0 0.570504 0.520058
0 0.648173 0.520623
0.574639 0.725948 0.528817
0.830549 0.764294 0.527871
0.941543 0.772869 0.524788
0.97937 0.779141 0.525429
0.990707 0.790036 0.531014
0 0.54583 0.519371
0 0.576608 0.53048
0 0.635493 0.545556
0 0.720607 0.545708
0.570199 0.808026 0.549508
0.841215 0.857313 0.547555
0.959609 0.873396 0.543206
0.999161 0.878813 0.543496
1 0.879561 0.544091
0 0.569223 0.553445
0 0.607736 0.567376
0 0.665476 0.581338
0 0.748135 0.581369
0.567834 0.834455 0.587091
0.83801 0.885832 0.586694
0.959579 0.90486 0.582895
1 0.910521 0.581643
1 0.908339 0.581231
0 0.597574 0.597284
0 0.652338 0.618051
0 0.704585 0.62678
0 0.774395 0.624048
0.584024 0.85037 0.635096
0.833616 0.897459 0.638376
0.953689 0.916991 0.636576
0.998566 0.923522 0.63534
1 0.92108 0.633967
0 0 0.375128
0 0 0.380941
0.0560311 0 0.393973
0.211368 0 0.424399
0.407065 0 0.453346
0.581064 0 0.475273
0.68275 0 0.489494
0.728115 0 0.497856
0.747677 0 0.505592
0 0 0.401419
0 0 0.407767
0.0635538 0 0.422492
0.229282 0 0.455131
0.440085 0 0.484382
0.62446 0 0.507118
0.722347 0 0.518868
0.762142 0 0.525673
0.778454 0 0.534905
0 4.57771e-05 0.439231
0 0 0.446311
0.00326543 0.0934005 0.468437
0.241382 0.11548 0.502846
0.468833 0.100267 0.529534
0.653223 0 0.542992
0.751354 0 0.55259
0.787884 0 0.558099
0.799405 0 0.564126
0 0.197452 0.51667
0 0.203738 0.525231
0 0.24445 0.550072
0.230182 0.294011 0.570718
0.519631 0.318395 0.598886
0.721798 0.317571 0.610162
0.815183 0.30837 0.612192
0.851789 0.318975 0.616739
0.869841 0.348669 0.626749
0 0.381735 0.59057
0 0.396292 0.601907
0 0.44126 0.624643
0.0817731 0.502312 0.633402
0.550134 0.554772 0.659663
0.784222 0.57409 0.670039
0.887449 0.573678 0.67155
0.924636 0.582864 0.674159
0.939788 0.605676 0.680827
0 0.513161 0.633677
0 0.536507 0.646296
0 0.591379 0.667887
0 0.670665 0.67837
0.550042 0.746258 0.69543
0.81828 0.784634 0.705303
0.933318 0.793027 0.706157
0.973007 0.799268 0.707576
0.985061 0.810178 0.711116
0 0.566018 0.655009
0 0.598428 0.669551
0 0.658152 0.691218
0 0.744137 0.701122
0.5402 0.829694 0.714229
0.825879 0.879271 0.724086
0.948913 0.895506 0.725093
0.99089 0.900969 0.725719
1 0.904433 0.727153
0 0.586648 0.677592
0 0.627283 0.694942
0 0.685863 0.714488
0 0.769329 0.723049
0.538796 0.854139 0.736614
0.823056 0.90602 0.74699
0.949233 0.925689 0.748562
0.99379 0.932067 0.748882
1 0.932143 0.748302
0 0.613397 0.705196
0 0.669688 0.728603
0 0.722118 0.741527
0 0.792432 0.745052
0.560769 0.866926 0.761669
0.820539 0.91426 0.772503
0.944656 0.934249 0.775006
0.991699 0.941176 0.77496
1 0.940932 0.774105
0 0 0.439094
0 0 0.445548
0.0241703 0 0.458625
0.214221 0 0.493217
0.417533 0 0.527047
0.596033 0 0.553841
0.696986 0 0.568078
0.74406 0 0.578775
0.763272 0 0.585992
0 0 0.471977
0 0 0.479637
0.0338293 0 0.494301
0.233127 0 0.531258
0.451865 0 0.566567
0.638727 0 0.592569
0.736996 0 0.604685
0.777401 0 0.612955
0.794797 0 0.621942
0 0 0.511666
0 0 0.519875
0.00030518 0.0716869 0.539864
0.242084 0.106355 0.579202
0.474006 0.0812085 0.61207
0.662867 0 0.63122
0.762127 0 0.642069
0.798718 0 0.647929
0.810468 0 0.654215
0 0.175937 0.582574
0 0.193622 0.596323
0 0.242161 0.624598
0.2168 0.299687 0.649989
0.517922 0.3234 0.684977
0.7234 0.322301 0.701213
0.819257 0.312795 0.705562
0.856611 0.322438 0.710384
0.874784 0.354269 0.719829
0 0.383383 0.666484
0 0.398657 0.6795
0 0.444648 0.70399
0.0177157 0.508934 0.717922
0.539895 0.560845 0.750301
0.779828 0.580438 0.76672
0.88603 0.5794 0.770489
0.924453 0.587823 0.773327
0.939818 0.6112 0.779126
0 0.517296 0.711055
0 0.542931 0.727108
0 0.60029 0.752499
0.000427253 0.679057 0.767468
0.532433 0.753887 0.789548
0.809094 0.792477 0.805997
0.928023 0.8009 0.809918
0.969512 0.806867 0.811688
0.981735 0.817395 0.813474
0 0.577081 0.732158
0 0.608286 0.749828
0 0.668513 0.772839
0 0.75407 0.787533
0.51902 0.838941 0.805371
0.814878 0.889052 0.82211
0.942077 0.905531 0.826764
0.986282 0.911192 0.827939
0.998535 0.915084 0.828763
0 0.596979 0.745007
0 0.637064 0.764691
0 0.694469 0.785428
0 0.778347 0.799374
0.517327 0.862364 0.816175
0.812253 0.915145 0.832929
0.942748 0.935378 0.838071
0.989303 0.942092 0.839124
1 0.943297 0.838895
0 0.622873 0.762554
0 0.676295 0.78497
0 0.728817 0.799466
0 0.79971 0.807538
0.543923 0.873716 0.826825
0.811124 0.921691 0.842268
0.938811 0.942321 0.847669
0.988098 0.949554 0.849165
1 0.950607 0.848722
0 0 0.476051
0 0 0.483253
0.00730907 0 0.496727
0.222126 0 0.533471
0.43415 0 0.570245
0.61503 0 0.597192
0.717464 0 0.614313
0.76025 0 0.62237
0.778683 0 0.629618
0 0 0.513405
0 0 0.522454
0.0214847 0 0.537179
0.238453 1.5259e-05 0.576349
0.462379 0 0.613886
0.652552 0 0.640467
0.751537 0 0.652689
0.791623 0 0.66128
0.807172 0 0.668925
0 0 0.548211
0 0 0.557534
0 0.0952468 0.581476
0.24155 0.14226 0.621637
0.482933 0.137789 0.657298
0.671534 0.0768139 0.676188
0.767773 0 0.684825
0.805203 0 0.690776
0.822003 0.0923781 0.699748
0 0.196414 0.619623
0 0.203738 0.630137
0 0.256962 0.661402
0.20351 0.318273 0.686488
0.518456 0.343725 0.724392
0.727489 0.343877 0.742962
0.825681 0.334737 0.748531
0.864103 0.343984 0.753689
0.882185 0.374411 0.762264
0 0.385 0.693874
0 0.408499 0.713527
0 0.450309 0.73518
0 0.516838 0.751568
0.534264 0.568933 0.786038
0.777386 0.588647 0.805081
0.885771 0.587472 0.810391
0.925719 0.595773 0.813825
0.941329 0.617624 0.818738
0 0.523964 0.741985
0 0.54931 0.758465
0 0.603159 0.783062
0 0.682445 0.800946
0.522728 0.756024 0.824048
0.803204 0.794644 0.843641
0.924453 0.802915 0.849393
0.967849 0.808759 0.851881
0.981292 0.820035 0.85362
0 0.579705 0.760769
0 0.613108 0.778088
0 0.671183 0.801892
0 0.757046 0.818936
0.507668 0.84065 0.838361
0.807996 0.891051 0.858228
0.938048 0.907866 0.864805
0.983886 0.913558 0.866682
0.997055 0.917967 0.867399
0 0.598367 0.76611
0 0.638788 0.7879
0 0.698116 0.810315
0 0.781018 0.826307
0.506294 0.864408 0.84448
0.805295 0.917433 0.864012
0.938445 0.938155 0.870924
0.986999 0.94493 0.872724
1 0.946868 0.87277
0 0.627054 0.783215
0 0.679332 0.804822
0 0.731914 0.822019
0 0.801266 0.829526
0.532464 0.8748 0.849622
0.804013 0.923522 0.867262
0.934585 0.94464 0.874266
0.986007 0.952102 0.876463
1 0.953841 0.87628
0 0 0.518868
0 0 0.528023
0.0435645 0 0.543786
0.239704 0 0.582681
0.458244 0 0.620066
0.646189 0 0.647471
0.747143 0 0.661509
0.788251 0 0.669184
0.803769 0 0.677531
0 0 0.549645
0 0 0.560113
0 0.0980697 0.583139
0.243977 0.13489 0.622797
0.477516 0.130114 0.658793
0.662959 0.0619516 0.678172
0.762753 0 0.689219
0.801968 0 0.696239
0.816556 0.0802319 0.703548
0 0.0645457 0.579339
0 0.110506 0.596262
0 0.178271 0.628138
0.233341 0.236973 0.662821
0.500587 0.252003 0.699977
0.697429 0.241245 0.719554
0.793957 0.22385 0.72636
0.833387 0.231601 0.732708
0.852735 0.268452 0.742504
0 0.248631 0.649958
0 0.26424 0.664927
0 0.313344 0.692561
0.147066 0.374533 0.713146
0.523507 0.407202 0.752194
0.739742 0.413748 0.771908
0.841825 0.407477 0.778058
0.881926 0.416312 0.783001
0.899626 0.445365 0.790494
0 0.411429 0.71458
0 0.4327 0.730571
0 0.477897 0.753491
0 0.543603 0.769207
0.530632 0.597055 0.801907
0.77792 0.61944 0.822034
0.889967 0.61941 0.828183
0.931502 0.6262 0.831434
0.947082 0.646738 0.835691
0 0.530922 0.752697
0 0.558297 0.768795
0 0.612589 0.794141
0 0.690288 0.811429
0.517876 0.762661 0.834791
0.798459 0.801511 0.855131
0.922408 0.810697 0.861891
0.967285 0.815518 0.864302
0.981826 0.826551 0.866239
0 0.583749 0.771893
0 0.621012 0.788983
0 0.675593 0.810651
0 0.759533 0.828092
0.503029 0.841443 0.847837
0.801999 0.891264 0.868406
0.934386 0.908507 0.875731
0.982406 0.914061 0.878126
0.995758 0.917922 0.878187
0 0.602823 0.776074
0 0.647669 0.799969
0 0.701534 0.817105
0 0.782849 0.833539
0.500984 0.864469 0.852415
0.799191 0.91722 0.872648
0.934844 0.938399 0.880552
0.985321 0.945525 0.882856
0.998779 0.946654 0.882094
0 0.630625 0.788815
0 0.684199 0.8121
0 0.733806 0.826932
0 0.802411 0.836118
0.52549 0.874464 0.856092
0.797604 0.923156 0.874449
0.930297 0.944717 0.881971
0.983413 0.952087 0.884276
1 0.954589 0.884855
