Assets/Sources/Texture/LUT/Rec709 Kodak 2383 D55.cube
TITLE "Generated by Resolve"
LUT_3D_SIZE 33
0.027451 0.0279393 0.0306249
0.0287785 0.0286412 0.0315862
0.0296941 0.0292363 0.0325017
0.0332189 0.0298924 0.0331121
0.0386816 0.0308385 0.0333715
0.0402075 0.0321508 0.0336614
0.0459144 0.0335851 0.0337224
0.0604715 0.035172 0.0335699
0.0741436 0.0387579 0.0335699
0.0868544 0.0429847 0.0327001
0.109453 0.0451514 0.0307927
0.141238 0.0473945 0.027512
0.171252 0.0500343 0.0151064
0.203922 0.0523079 0.000915541
0.245075 0.0536202 0
0.293538 0.0518196 0
0.343679 0.0467994 0
0.390341 0.0378729 0
0.431464 0.00517281 0
0.472831 0 0
0.511864 0 0
0.545098 0 0
0.571756 0 0
0.594278 0 0
0.613489 0 0
0.629541 0 0
0.642512 0 0
0.652903 0 0
0.66157 0 0
0.66891 0 0
0.674403 0 0
0.67892 0 0
0.683619 0 0
0.0271153 0.0301061 0.0317082
0.0285954 0.0307012 0.0325322
0.0293889 0.0312505 0.0333867
0.032929 0.0318761 0.0339513
0.0386969 0.0328069 0.034165
0.0402228 0.034165 0.0345006
0.0468147 0.0355535 0.0344549
0.0618448 0.0373846 0.0344701
0.0762493 0.0412909 0.0343023
0.0892958 0.0455482 0.0332799
0.112673 0.0484169 0.0315709
0.145678 0.0508431 0.0274662
0.176974 0.0527657 0.0141604
0.211078 0.0546883 0.000793469
0.253315 0.0564431 0
0.302602 0.0550393 0
0.353628 0.0514382 0
0.401007 0.0425269 0
0.442618 0.0263981 0
0.483909 0 0
0.523232 0 0
0.556573 0 0
0.583108 0 0
0.605356 0 0
0.624201 0 0
0.639918 0 0
0.652491 0 0
0.66247 0 0
0.670756 0 0
0.677806 0 0
0.68307 0 0
0.687388 0 0
0.69189 0 0
0.0272374 0.0315557 0.0326238
0.0286564 0.032105 0.0333867
0.0293278 0.0326238 0.0341802
0.0328985 0.0332189 0.034699
0.038819 0.034165 0.0348974
0.0404669 0.0355688 0.0352483
0.0474861 0.0369421 0.0351873
0.0632334 0.0389715 0.0353094
0.0782025 0.0431067 0.0349889
0.0915999 0.0473945 0.0337987
0.115679 0.0507973 0.0321813
0.149737 0.0527199 0.0275883
0.182345 0.054551 0.012665
0.217792 0.0564584 0.000564584
0.261021 0.058381 0
0.311101 0.0571145 0
0.362951 0.0540475 0
0.411032 0.0462196 0
0.453147 0.0302434 0
0.49453 0 0
0.534157 0.000106813 0
0.567636 0 0
0.594095 0 0
0.616083 0 0
0.634592 0 0
0.649973 0 0
0.662196 0 0
0.671778 0 0
0.679698 0 0
0.686473 0 0
0.691524 0 0
0.695644 0 0
0.699947 0 0
0.0267643 0.0348974 0.0337682
0.0282292 0.035462 0.0345006
0.028809 0.035935 0.0352331
0.0323491 0.0364843 0.0357061
0.0383612 0.0374304 0.0358892
0.0401007 0.0388647 0.0362554
0.0476234 0.0403906 0.0362249
0.0649729 0.0428016 0.0363012
0.080415 0.0469978 0.0357671
0.0940414 0.0513313 0.0346075
0.118822 0.0546578 0.032517
0.153887 0.0561379 0.0277867
0.187976 0.0583505 0.0110781
0.224903 0.0612497 0.00030518
0.269078 0.0627146 0
0.320089 0.0622568 0
0.372854 0.059678 0
0.421714 0.0542916 0
0.464347 0.0424506 0
0.505379 0.0129244 0
0.545098 0 0
0.578729 4.57771e-05 0
0.605127 0 0
0.626856 0 0
0.645045 0 0
0.660105 0 0
0.672007 0 0
0.681224 0 0
0.688823 0 0
0.695338 0 0
0.700175 0 0
0.704128 0 0
0.708247 0 0
0.0244602 0.0398718 0.0353552
0.0271 0.0404517 0.0360418
0.027863 0.04094 0.036759
0.0316777 0.0415808 0.037232
0.0377508 0.0425422 0.0373999
0.0395819 0.0440681 0.0377508
0.0475624 0.0458381 0.0377966
0.0672923 0.0489662 0.0377203
0.0826429 0.0526284 0.0366979
0.0965438 0.0568856 0.0360418
0.122377 0.0602426 0.0332341
0.15874 0.062089 0.0289769
0.194324 0.064683 0.0100404
0.232792 0.0690166 7.62951e-05
0.278111 0.0717937 0
0.330129 0.0715648 0
0.384009 0.0698558 0
0.433783 0.0661021 0
0.476982 0.0582132 0
0.518029 0.0411536 0
0.556664 0.00543221 0
0.590372 0 0
0.616678 0 0
0.638148 0 0
0.65597 0 0
0.670741 0 0
0.682368 0 0
0.69131 0 0
0.69865 0 0
0.704952 0 0
0.709621 0 0
0.713405 0 0
0.717357 0 0
0.024445 0.0431983 0.0373541
0.0271916 0.0437324 0.037995
0.0280766 0.0441749 0.0386664
0.032105 0.044831 0.0391089
0.0383612 0.0458381 0.0392462
0.0403449 0.0474861 0.0395972
0.0494087 0.0498207 0.0399023
0.0691844 0.0527504 0.0394293
0.0849928 0.0562142 0.0381628
0.0996719 0.0608377 0.0379797
0.126421 0.0643626 0.0344549
0.164187 0.0667887 0.0305486
0.200977 0.0694591 0.0111238
0.240818 0.0749218 0.000122072
0.287343 0.0786297 0
0.340536 0.0791638 0
0.395712 0.0784772 0
0.44651 0.075639 0
0.490288 0.0692302 0
0.53164 0.0573281 0
0.56994 0.0280613 0
0.602808 0.000106813 0
0.628992 0 0
0.650111 0 0
0.667567 0 0
0.682033 0 0
0.693462 0 0
0.70222 0 0
0.709377 0 0
0.715541 0 0
0.720073 0 0
0.723735 0 0
0.727565 0 0
0.018677 0.0492256 0.0394751
0.0246738 0.0497139 0.0399481
0.0268406 0.0501106 0.0404974
0.031693 0.0508736 0.0409705
0.0383459 0.0522164 0.0413519
0.0409247 0.0541238 0.041825
0.0496071 0.0563363 0.0421759
0.0698253 0.0590372 0.041062
0.0874495 0.062974 0.0400702
0.102953 0.0678874 0.0397498
0.13077 0.0718242 0.0357671
0.170016 0.0751354 0.0313115
0.208179 0.0788128 0.0105898
0.249317 0.083711 0
0.297124 0.0876326 0
0.351644 0.0893873 0
0.408225 0.0897993 0
0.460136 0.0888685 0
0.50457 0.0854658 0
0.546227 0.0774395 0
0.58468 0.0659495 0
0.6168 0.0494698 0
0.641917 0.0196994 0
0.662425 0.013901 0
0.679301 0.0108339 0
0.693385 0.00775158 0
0.704616 0.007187 0
0.713252 0.00839246 0
0.720363 0.0104829 0
0.726482 0.012665 0
0.731014 0.0142367 0
0.734691 0.0161898 0
0.738537 0.0180514 0
0.00341802 0.0612039 0.042359
0.00740063 0.061677 0.0425879
0.00935378 0.062089 0.0429999
0.0195315 0.0627756 0.0428168
0.0334936 0.0643931 0.0431983
0.0361181 0.0663767 0.0436866
0.0465858 0.068925 0.0440833
0.0699474 0.0721294 0.0431678
0.0889601 0.0764782 0.0420386
0.105867 0.0816205 0.0399176
0.135134 0.0863966 0.0374151
0.175921 0.0901961 0.0307927
0.216236 0.0948806 0.00833143
0.259129 0.100938 0
0.308339 0.106188 0
0.364233 0.109468 0
0.422248 0.111666 0
0.475334 0.112474 0
0.520455 0.111009 0
0.562478 0.106523 0
0.601114 0.100542 0
0.633402 0.094255 0
0.658228 0.08925 0
0.677775 0.0817426 0
0.693751 0.0736248 0
0.707286 0.0671855 0
0.718303 0.0666667 0
0.726955 0.0703136 0
0.734173 0.0761273 0
0.740475 0.0821393 0
0.745296 0.0872663 0
0.749325 0.0933394 0
0.753506 0.0991531 0
0 0.0733501 0.0459297
0 0.0738384 0.0462501
0 0.0742809 0.0467079
0.000259403 0.0749371 0.0464485
0.0235599 0.076524 0.0464637
0.0299229 0.0786755 0.0468452
0.0411841 0.0813916 0.0467536
0.0700389 0.085008 0.0460059
0.0899367 0.0897231 0.0442359
0.10927 0.0954299 0.0420386
0.140322 0.100847 0.0383917
0.18294 0.105501 0.0311589
0.225177 0.111086 0.00828565
0.269963 0.118257 0
0.320729 0.12491 0
0.378012 0.12932 0
0.437552 0.132815 0
0.491905 0.13489 0
0.537835 0.135424 0
0.58027 0.133745 0
0.61912 0.129885 0
0.65156 0.126421 0
0.676432 0.123781 0
0.695903 0.120592 0
0.711757 0.117769 0
0.725155 0.116747 0
0.736095 0.118227 0
0.744625 0.121126 0
0.751766 0.124331 0
0.758038 0.12781 0
0.762905 0.13228 0
0.767025 0.137194 0
0.771282 0.141878 0
0 0.0846113 0.0490272
0 0.0851759 0.0495308
0 0.0856641 0.0501259
0 0.0864729 0.050248
0.000335698 0.0880446 0.049897
0.00196841 0.0903182 0.0501869
0.036347 0.0933394 0.0504158
0.0692149 0.0973373 0.0495003
0.093019 0.102739 0.047776
0.112139 0.108812 0.0454261
0.145571 0.114839 0.039826
0.190402 0.120302 0.0309911
0.23473 0.126802 0.00794995
0.281346 0.13492 0
0.333715 0.142351 0
0.39263 0.148272 0
0.453834 0.153323 0
0.50956 0.157 0
0.556344 0.158968 0
0.599237 0.158541 0
0.638361 0.156329 0
0.67097 0.154376 0
0.695903 0.152697 0
0.715328 0.150805 0
0.73109 0.149508 0
0.744396 0.149599 0
0.755215 0.151415 0
0.763638 0.154421 0
0.770672 0.157748 0
0.776959 0.161608 0
0.781933 0.166415 0
0.786206 0.171862 0
0.7906 0.177157 0
0 0.102617 0.0536507
0 0.103319 0.0539101
0 0.103914 0.0542611
0 0.104891 0.0542153
0 0.106737 0.053727
0 0.109255 0.0536202
0.00791943 0.112322 0.052842
0.0612955 0.116732 0.0513313
0.0923323 0.122835 0.0491646
0.11426 0.129778 0.0451972
0.149935 0.136736 0.0392767
0.197269 0.14313 0.0232853
0.244648 0.151369 0.00180056
0.293873 0.161257 0
0.34786 0.169787 0
0.408286 0.176699 0
0.471244 0.183352 0
0.528405 0.188602 0
0.576089 0.191836 0
0.61944 0.19234 0
0.658946 0.191913 0
0.691783 0.191073 0
0.716869 0.190509 0
0.736324 0.189883 0
0.75201 0.189425 0
0.765225 0.190066 0
0.775952 0.192233 0
0.784222 0.195193 0
0.79118 0.19884 0
0.797482 0.203098 0
0.802548 0.208316 0
0.806958 0.213977 0
0.811475 0.219013 0
0 0.126848 0.0557107
0 0.127855 0.0559091
0 0.128725 0.0562142
0 0.130068 0.0560616
0 0.132403 0.0554513
1.5259e-05 0.135317 0.0549935
0 0.139101 0.0541085
0.0328985 0.143786 0.0509651
0.0847486 0.150744 0.0463722
0.112505 0.158862 0.0408179
0.152178 0.16701 0.0312963
0.203357 0.175433 0.0078584
0.25507 0.186419 0
0.306828 0.197696 1.5259e-05
0.36289 0.207538 0
0.425315 0.216144 0
0.489921 0.224018 0
0.548501 0.230533 0
0.597162 0.235004 0
0.641169 0.236957 0
0.681071 0.237659 0
0.714214 0.237888 0
0.739483 0.238148 0
0.758968 0.238148 0
0.774578 0.238193 0
0.787762 0.239261 0
0.798413 0.241688 0
0.806577 0.244892 0
0.813474 0.248737 0
0.819715 0.25301 0
0.824826 0.25832 0
0.829267 0.263951 0
0.833829 0.269322 0
0 0.151369 0.0573129
0 0.152682 0.0574044
0 0.153841 0.0576181
0 0.155566 0.0573587
0 0.158419 0.0564889
0 0.162158 0.0559243
0 0.166506 0.05449
0.0126955 0.171633 0.049424
0.0688334 0.179339 0.0422522
0.107485 0.188693 0.0345006
0.153536 0.198398 0.00637827
0.210697 0.209949 0
0.26598 0.222751 4.57771e-05
0.320699 0.235416 0
0.379217 0.246799 0
0.443336 0.256489 0
0.509819 0.265522 0
0.569879 0.273121 0
0.619623 0.278614 0
0.664286 0.281529 0
0.704692 0.282979 0
0.738216 0.283986 0
0.76376 0.285039 0
0.783322 0.28542 0
0.798856 0.285649 0
0.812055 0.287327 0
0.822675 0.290028 0
0.830793 0.293446 0
0.837507 0.297353 0
0.843763 0.30219 0
0.848875 0.308003 0
0.8533 0.314061 0
0.857877 0.31986 0
0 0.176593 0.0581979
0 0.178225 0.0583352
0 0.179675 0.0585946
0 0.181796 0.0582284
0 0.185199 0.0568399
0 0.189532 0.0556649
0 0.194644 0.0532235
0 0.200641 0.0452583
0.044831 0.209018 0.0357519
0.0993362 0.219654 0.00370794
0.153368 0.232609 0
0.216587 0.246067 1.5259e-05
0.276631 0.260426 0
0.334615 0.274739 0
0.395224 0.287419 0
0.461524 0.298375 0
0.530007 0.308644 0
0.591699 0.317327 0
0.642512 0.323674 0
0.688075 0.327642 0
0.729061 0.3299 0
0.763058 0.331594 0
0.788876 0.333013 0
0.808469 0.333577 0
0.824109 0.334356 0
0.837278 0.33608 0
0.847852 0.338872 0
0.855787 0.342382 0
0.862531 0.346777 0
0.868772 0.352026 0
0.873808 0.358038 0
0.878126 0.36434 0
0.882582 0.370489 0
0 0.204791 0.0567788
0 0.20679 0.056611
0 0.208576 0.0565957
0 0.211109 0.0558022
0 0.215167 0.0539101
0 0.220233 0.0520027
0 0.226093 0.0464942
9.15541e-05 0.23331 0.0349889
0 0.242985 0.00456245
0.0797131 0.256565 0
0.15108 0.271351 0
0.220783 0.286458 0
0.285008 0.302571 0
0.346807 0.318685 0
0.410651 0.333165 0
0.47895 0.345602 0
0.549371 0.357183 0
0.612696 0.367071 0
0.66482 0.374548 0
0.711284 0.379477 0
0.752972 0.382559 0
0.787549 0.385046 0
0.813703 0.386954 0
0.833539 0.387854 0
0.849195 0.388647 0
0.862364 0.390402 0
0.872923 0.393362 0
0.880888 0.397055 0
0.887541 0.401389 0
0.893629 0.406485 0
0.898558 0.412558 0
0.902785 0.418936 0
0.907134 0.42504 0
0 0.236332 0.0509041
0 0.238666 0.0504921
0 0.240818 0.0504311
0 0.243778 0.0484932
0 0.248524 0.0434272
0 0.25449 0.0372625
0 0.261662 0.0243992
0 0.270924 0.00712596
0 0.283711 0
0.0321813 0.298604 0
0.14168 0.315053 0
0.221439 0.332036 0
0.291539 0.350179 0
0.35729 0.368338 0
0.423728 0.384634 0
0.494972 0.398856 0
0.567666 0.4121 0
0.633066 0.423575 0
0.686381 0.432212 0
0.733974 0.438239 0
0.776532 0.442374 0
0.811688 0.445487 0
0.838239 0.447684 0
0.858289 0.448631 0
0.874006 0.449302 0
0.887251 0.451057 0
0.897841 0.454047 0
0.90573 0.457649 0
0.912245 0.46186 0
0.918181 0.466712 0
0.922988 0.472496 0
0.927062 0.478584 0
0.931197 0.484337 0
0 0.269017 0.0373846
0 0.271778 0.0360723
0 0.27422 0.0357977
0 0.277684 0.027039
0 0.283452 0.0162356
0 0.290806 0.011429
0 0.299855 0
0 0.311635 0
0.000213626 0.326177 4.57771e-05
0 0.342657 0
0.122179 0.360464 0
0.219043 0.379431 0
0.295827 0.399695 0
0.366339 0.420005 0
0.436515 0.438361 0
0.510491 0.454383 0
0.585657 0.469368 0
0.653071 0.482353 0
0.708202 0.492439 0
0.756786 0.499458 0
0.800214 0.504402 0
0.836103 0.508156 0
0.863142 0.510674 0
0.883391 0.511543 0
0.899199 0.512001 0
0.912535 0.513664 0
0.92314 0.516609 0
0.930983 0.520272 0
0.937484 0.524514 0
0.943313 0.529213 0
0.947814 0.534554 0
0.951614 0.540261 0
0.955474 0.545693 0
0 0.299748 0.00657664
0 0.303044 0.00619516
0 0.305943 0.0061799
0 0.310216 0.00263981
0 0.317235 0
0 0.325978 0
0 0.336538 6.10361e-05
0 0.349538 0
0 0.36553 0
0 0.383612 0
0.0694896 0.402625 0
0.217197 0.423453 0
0.298939 0.445716 0
0.374044 0.468055 0
0.44744 0.488289 0
0.524285 0.50605 0
0.601907 0.522698 0
0.671443 0.537209 0
0.728023 0.548501 0
0.777859 0.556619 0
0.822293 0.562417 0
0.858885 0.566796 0
0.886351 0.569635 0
0.90692 0.570596 0
0.922881 0.570977 0
0.936217 0.572488 0
0.946975 0.575509 0
0.954849 0.579187 0
0.961166 0.583246 0
0.966812 0.587655 0
0.971115 0.59266 0
0.974624 0.59791 0
0.978286 0.603006 0
0 0.327459 0
0 0.331304 0
0 0.334707 0
0 0.339651 0
0 0.347478 0
0 0.357015 0
0 0.36849 0
0 0.382605 0
0 0.399847 0
0 0.419287 0
0.0237736 0.439628 0
0.21268 0.46183 0
0.300908 0.485832 0
0.380087 0.509941 0
0.456779 0.531868 0
0.535744 0.551186 0
0.615579 0.569375 0
0.686763 0.58529 0
0.744595 0.597742 0
0.795727 0.606897 0
0.841077 0.613596 0
0.878325 0.618647 0
0.906447 0.622034 0
0.927245 0.62327 0
0.943358 0.623819 0
0.957046 0.625498 0
0.967803 0.628397 0
0.975601 0.631846 0
0.981826 0.635615 0
0.987488 0.639765 0
0.991592 0.644236 0
0.994842 0.648875 0
0.99826 0.653422 0
0 0.35407 0
0 0.358526 0
0 0.362493 0
0 0.368063 0
0 0.376608 0
0 0.386923 0
0 0.399252 0
0 0.414405 0
0 0.432837 0
0 0.453574 0
0.0204929 0.475288 0
0.201053 0.498726 0
0.300679 0.524422 0
0.383886 0.550256 0
0.463859 0.573816 0
0.544854 0.594675 0
0.62681 0.61445 0
0.699611 0.6318 0
0.758801 0.645518 0
0.810849 0.655726 0
0.857298 0.663371 0
0.895384 0.66923 0
0.924117 0.673335 0
0.945388 0.675166 0
0.961975 0.676143 0
0.975692 0.677913 0
0.986526 0.680705 0
0.99353 0.683497 0
0.998917 0.686503 0
1 0.688609 0
1 0.690684 0
1 0.693263 0
1 0.695705 0
0 0.378714 0
0 0.38378 0
0 0.388342 0
0 0.394553 0
0 0.4038 0
0 0.414801 0
0 0.427924 0
0 0.443992 0
0 0.463523 0
0 0.485466 0
0.0177157 0.508446 0
0.186221 0.533013 0
0.299733 0.560296 0
0.387015 0.587701 0
0.469398 0.612802 0
0.552697 0.635157 0
0.636164 0.656367 0
0.710414 0.67512 0
0.770794 0.690013 0
0.824048 0.701289 0
0.871351 0.709865 0
0.910185 0.716503 0
0.93959 0.721279 0
0.961318 0.723751 0
0.978393 0.725246 0
0.99202 0.727077 0
1 0.728679 0
1 0.72874 0
1 0.729076 0
0.999985 0.729946 0
1 0.73167 0
1 0.733623 0
1 0.735485 0
0 0.399008 0
0 0.4047 0
0 0.409842 0
0 0.416648 0
0 0.426505 0
0 0.438071 0
0 0.451789 0
0 0.468605 0
0 0.488975 0
0 0.511849 0
0.0148318 0.535821 0
0.171344 0.561318 0
0.298848 0.589837 0
0.389425 0.618509 0
0.474128 0.644846 0
0.559167 0.668406 0
0.643992 0.690867 0
0.719219 0.710735 0
0.780591 0.726619 0
0.834821 0.738781 0
0.882887 0.748119 0
0.922484 0.755489 0
0.952407 0.760891 0
0.974701 0.763958 0
0.991714 0.765759 0
1 0.76585 0
1 0.764599 0
1 0.764263 0
1 0.764538 0
1 0.765072 0
1 0.76614 0
1 0.767529 0
1 0.768856 0
0 0.413916 0
0 0.420172 0
0 0.425895 0
0 0.433234 0
0 0.443565 0
0 0.455528 0
0 0.469627 0
0 0.486915 0
0 0.507851 0
0 0.531319 0
0.0125277 0.555962 0
0.15967 0.582101 0
0.298482 0.611475 0
0.391287 0.641032 0
0.477714 0.668254 0
0.56405 0.692729 0
0.649805 0.716121 0
0.726101 0.736904 0
0.788205 0.753567 0
0.842969 0.7664 0
0.89163 0.776379 0
0.931746 0.784298 0
0.962051 0.790219 0
0.984833 0.793774 0
1 0.795392 0
1 0.792844 0
1 0.791333 0
1 0.790799 0
1 0.790829 0
1 0.791272 0
1 0.792432 0
1 0.793454 0
1 0.79443 0
0 0.42501 0
0 0.43183 0
0 0.438117 0
0 0.445945 0
0 0.456657 0
0 0.468894 0
0 0.483223 0
0 0.500801 0
0 0.522072 0
0 0.545922 0
0.0104219 0.570993 0
0.149416 0.597589 0
0.29865 0.627543 0
0.392752 0.657725 0
0.479942 0.685603 0
0.567147 0.710811 0
0.654032 0.734981 0
0.730861 0.756497 0
0.793515 0.773846 0
0.848554 0.787228 0
0.897688 0.797757 0
0.93817 0.80621 0
0.968811 0.812589 0
0.991928 0.816648 0
1 0.816266 0
1 0.813779 0
1 0.812558 0
1 0.812009 0
1 0.811872 0
1 0.811978 0
1 0.812512 0
1 0.813291 0
1 0.814008 0
0 0.433875 0
0 0.441321 0
0 0.448203 0
0 0.456565 0
0 0.467643 0
0 0.480095 0
0 0.49456 0
0 0.512276 0
0 0.533745 0
0 0.557794 0
0.00952163 0.583108 0
0.145556 0.609995 0
0.29984 0.640299 0
0.394553 0.670893 0
0.48249 0.699245 0
0.570001 0.724941 0
0.657176 0.749722 0
0.734554 0.771817 0
0.797391 0.78967 0
0.852842 0.803571 0
0.90219 0.814572 0
0.942885 0.823438 0
0.973785 0.830259 0
0.997101 0.83473 0
1 0.832975 0
1 0.83093 0
1 0.829801 0
1 0.82919 0
1 0.828916 0
1 0.828901 0
1 0.829267 0
1 0.829831 0
1 0.83035 0
0 0.441596 0
0 0.449775 0
0 0.457389 0
0 0.466361 0
0 0.477836 0
0 0.490501 0
0 0.505058 0
0 0.522866 0
0 0.544411 0
0 0.568505 0
0.0105287 0.593912 0
0.1514 0.620951 0
0.302785 0.651408 0
0.397742 0.68217 0
0.485801 0.71075 0
0.573404 0.736767 0
0.660594 0.761883 0
0.737881 0.784344 0
0.800748 0.802533 0
0.856382 0.81677 0
0.905776 0.828107 0
0.9467 0.837324 0
0.97792 0.844495 0
1 0.848951 0
1 0.846433 0
1 0.844648 0
1 0.843565 0
1 0.842893 0
1 0.842512 0
1 0.842374 0
1 0.842588 0
1 0.842985 0
1 0.843351 0
0 0.447776 0
0 0.456809 0
0 0.465263 0
0 0.474922 0
0 0.486854 0
0 0.499733 0
0 0.514397 0
0 0.53225 0
0 0.553765 0
0 0.577783 0
0.0127718 0.603143 0
0.163882 0.630198 0
0.307347 0.660594 0
0.40209 0.691325 0
0.489677 0.719921 0
0.576959 0.746029 0
0.663828 0.771267 0
0.740856 0.793881 0
0.803693 0.812222 0
0.859434 0.826703 0
0.908751 0.838254 0
0.949737 0.8477 0
0.98146 0.855238 0
1 0.858778 0
1 0.856565 0
1 0.854978 0
1 0.853971 0
1 0.8533 0
1 0.852872 0
1 0.852689 0
1 0.852811 0
1 0.853101 0
1 0.853346 0
0 0.452628 0
0 0.462608 0
0 0.471992 0
0 0.482429 0
0 0.49482 0
0 0.507927 0
0 0.522652 0
0 0.540444 0
0 0.561822 0
