Assets/Sources/Texture/LUT/Rec709 Kodak 2383 D55.cube
TITLE "Generated by Resolve"
LUT_3D_SIZE 5
0.027451 0.0279393 0.0306249
0.0741436 0.0387579 0.0335699
0.343679 0.0467994 0
0.613489 0 0
0.683619 0 0
0 0.0733501 0.0459297
0.0899367 0.0897231 0.0442359
0.437552 0.132815 0
0.711757 0.117769 0
0.771282 0.141878 0
0 0.269017 0.0373846
0.000213626 0.326177 4.57771e-05
0.585657 0.469368 0
0.899199 0.512001 0
0.955474 0.545693 0
0 0.433875 0
0 0.533745 0
0.657176 0.749722 0
1 0.832975 0
1 0.83035 0
0 0.489479 0
0 0.611658 0
0.691325 0.800061 0
1 0.880217 0
1 0.875227 0
0.0216983 0.0296941 0.0776837
0.0773632 0.0407111 0.0847334
0.356893 0 0.0810559
0.631189 0 0.0666667
0.699931 0 0.0720836
0 0.0852369 0.105623
0.0881666 0.102266 0.109728
0.446555 0.124575 0.0948653
0.714534 0 0.0244755
0.768429 0.0392004 0.00114443
0 0.307271 0.151141
0 0.361181 0.141451
0.584039 0.483391 0
0.905241 0.52369 0
0.958175 0.556115 0
0 0.46836 0.171786
0 0.558007 0.143053
0.639826 0.759884 0
1 0.844739 0
1 0.839445 0
0 0.537713 0.300908
0 0.643107 0.296071
0.636576 0.794797 0.235294
0.97789 0.862516 0.131426
1 0.860502 0.121462
0 0 0.275624
0.0767376 0 0.2934
0.390341 0 0.337469
0.664881 0 0.367178
0.730755 0 0.382818
0 0.0439002 0.328435
0.0288396 0.110918 0.355367
0.463279 0.126223 0.399283
0.737163 0 0.410315
0.788006 0.0519417 0.422583
0 0.368963 0.458503
0 0.426032 0.48368
0.562966 0.538491 0.502953
0.88922 0.557809 0.5028
0.940459 0.589731 0.512474
0 0.54583 0.519371
0 0.635493 0.545556
0.570199 0.808026 0.549508
0.959609 0.873396 0.543206
1 0.879561 0.544091
0 0.597574 0.597284
0 0.704585 0.62678
0.584024 0.85037 0.635096
0.953689 0.916991 0.636576
1 0.92108 0.633967
0 0 0.439094
0.0241703 0 0.458625
0.417533 0 0.527047
0.696986 0 0.568078
0.763272 0 0.585992
0 0 0.511666
0.00030518 0.0716869 0.539864
0.474006 0.0812085 0.61207
0.762127 0 0.642069
0.810468 0 0.654215
0 0.383383 0.666484
0 0.444648 0.70399
0.539895 0.560845 0.750301
0.88603 0.5794 0.770489
0.939818 0.6112 0.779126
0 0.577081 0.732158
0 0.668513 0.772839
0.51902 0.838941 0.805371
0.942077 0.905531 0.826764
0.998535 0.915084 0.828763
0 0.622873 0.762554
0 0.728817 0.799466
0.543923 0.873716 0.826825
0.938811 0.942321 0.847669
1 0.950607 0.848722
0 0 0.518868
0.0435645 0 0.543786
0.458244 0 0.620066
0.747143 0 0.661509
0.803769 0 0.677531
0 0.0645457 0.579339
0 0.178271 0.628138
0.500587 0.252003 0.699977
0.793957 0.22385 0.72636
0.852735 0.268452 0.742504
0 0.411429 0.71458
0 0.477897 0.753491
0.530632 0.597055 0.801907
0.889967 0.61941 0.828183
0.947082 0.646738 0.835691
0 0.583749 0.771893
0 0.675593 0.810651
0.503029 0.841443 0.847837
0.934386 0.908507 0.875731
0.995758 0.917922 0.878187
0 0.630625 0.788815
0 0.733806 0.826932
0.52549 0.874464 0.856092
0.930297 0.944717 0.881971
1 0.954589 0.884855
